/* XPM */
static char * icon_xpm[] = {
"256 256 230 2",
"  	c None",
". 	c #C1C1C1",
"+ 	c #C0C0C0",
"@ 	c #C2C2C2",
"# 	c #F4F4F4",
"$ 	c #BFBFBF",
"% 	c #F3F3F3",
"& 	c #F2F2F2",
"* 	c #F7F7F7",
"= 	c #FCFCFC",
"- 	c #F8F8F8",
"; 	c #FDFDFD",
"> 	c #FFFFFF",
", 	c #FEFEFE",
"' 	c #F9F9F9",
") 	c #FAFAFA",
"! 	c #F5F5F5",
"~ 	c #FBFBFB",
"{ 	c #F6F6F6",
"] 	c #ECECEC",
"^ 	c #E4E4E4",
"/ 	c #EBEBEB",
"( 	c #BDBDBD",
"_ 	c #EDEDED",
": 	c #E9E9E9",
"< 	c #E8E8E8",
"[ 	c #BEBEBE",
"} 	c #C3C3C3",
"| 	c #F1F1F1",
"1 	c #EEEEEE",
"2 	c #EFEFEF",
"3 	c #F0F0F0",
"4 	c #BABABA",
"5 	c #C4C4C4",
"6 	c #EAEAEA",
"7 	c #E7E7E7",
"8 	c #C8C8C8",
"9 	c #D7D7D7",
"0 	c #D0D0D0",
"a 	c #CECECE",
"b 	c #E3E3E3",
"c 	c #E6E6E6",
"d 	c #E5E5E5",
"e 	c #7C7C7C",
"f 	c #272727",
"g 	c #595959",
"h 	c #C5C5C5",
"i 	c #AFAFAF",
"j 	c #474747",
"k 	c #2C2C2C",
"l 	c #9B9B9B",
"m 	c #CCCCCC",
"n 	c #212121",
"o 	c #000000",
"p 	c #9E9E9E",
"q 	c #808080",
"r 	c #232323",
"s 	c #E0E0E0",
"t 	c #CACACA",
"u 	c #161616",
"v 	c #9A9A9A",
"w 	c #DEDEDE",
"x 	c #777777",
"y 	c #181818",
"z 	c #DBDBDB",
"A 	c #171717",
"B 	c #191919",
"C 	c #E2E2E2",
"D 	c #E1E1E1",
"E 	c #DFDFDF",
"F 	c #DDDDDD",
"G 	c #DCDCDC",
"H 	c #BBBBBB",
"I 	c #989898",
"J 	c #DADADA",
"K 	c #767676",
"L 	c #CBCBCB",
"M 	c #919191",
"N 	c #D9D9D9",
"O 	c #6F6F6F",
"P 	c #202020",
"Q 	c #8B8B8B",
"R 	c #D4D4D4",
"S 	c #656565",
"T 	c #1C1C1C",
"U 	c #2E2E2E",
"V 	c #7F7F7F",
"W 	c #545454",
"X 	c #292929",
"Y 	c #D2D2D2",
"Z 	c #404040",
"` 	c #6C6C6C",
" .	c #3B3B3B",
"..	c #3D3D3D",
"+.	c #575757",
"@.	c #555555",
"#.	c #CFCFCF",
"$.	c #141414",
"%.	c #707070",
"&.	c #3E3E3E",
"*.	c #7B7B7B",
"=.	c #878787",
"-.	c #2B2B2B",
";.	c #979797",
">.	c #9F9F9F",
",.	c #BCBCBC",
"'.	c #0A0A0A",
").	c #A3A3A3",
"!.	c #717171",
"~.	c #D1D1D1",
"{.	c #484848",
"].	c #2D2D2D",
"^.	c #C9C9C9",
"/.	c #383838",
"(.	c #6E6E6E",
"_.	c #5C5C5C",
":.	c #D8D8D8",
"<.	c #969696",
"[.	c #050505",
"}.	c #838383",
"|.	c #8D8D8D",
"1.	c #A9A9A9",
"2.	c #757575",
"3.	c #101010",
"4.	c #A0A0A0",
"5.	c #7D7D7D",
"6.	c #424242",
"7.	c #323232",
"8.	c #D6D6D6",
"9.	c #A4A4A4",
"0.	c #B4B4B4",
"a.	c #616161",
"b.	c #A6A6A6",
"c.	c #B6B6B6",
"d.	c #B9B9B9",
"e.	c #333333",
"f.	c #535353",
"g.	c #1E1E1E",
"h.	c #ABABAB",
"i.	c #6B6B6B",
"j.	c #A7A7A7",
"k.	c #0B0B0B",
"l.	c #6A6A6A",
"m.	c #D5D5D5",
"n.	c #D3D3D3",
"o.	c #010101",
"p.	c #5A5A5A",
"q.	c #B1B1B1",
"r.	c #2A2A2A",
"s.	c #252525",
"t.	c #B0B0B0",
"u.	c #5B5B5B",
"v.	c #A5A5A5",
"w.	c #8A8A8A",
"x.	c #434343",
"y.	c #111111",
"z.	c #030303",
"A.	c #1B1B1B",
"B.	c #B3B3B3",
"C.	c #3F3F3F",
"D.	c #8C8C8C",
"E.	c #5E5E5E",
"F.	c #0D0D0D",
"G.	c #020202",
"H.	c #939393",
"I.	c #242424",
"J.	c #AAAAAA",
"K.	c #1A1A1A",
"L.	c #363636",
"M.	c #121212",
"N.	c #1F1F1F",
"O.	c #858585",
"P.	c #505050",
"Q.	c #070707",
"R.	c #0C0C0C",
"S.	c #646464",
"T.	c #131313",
"U.	c #B7B7B7",
"V.	c #393939",
"W.	c #060606",
"X.	c #4E4E4E",
"Y.	c #949494",
"Z.	c #151515",
"`.	c #AEAEAE",
" +	c #040404",
".+	c #737373",
"++	c #4A4A4A",
"@+	c #343434",
"#+	c #888888",
"$+	c #686868",
"%+	c #A2A2A2",
"&+	c #303030",
"*+	c #282828",
"=+	c #373737",
"-+	c #0E0E0E",
";+	c #9D9D9D",
">+	c #B5B5B5",
",+	c #454545",
"'+	c #A8A8A8",
")+	c #444444",
"!+	c #464646",
"~+	c #2F2F2F",
"{+	c #626262",
"]+	c #696969",
"^+	c #585858",
"/+	c #9C9C9C",
"(+	c #C6C6C6",
"_+	c #898989",
":+	c #5F5F5F",
"<+	c #818181",
"[+	c #4B4B4B",
"}+	c #494949",
"|+	c #3A3A3A",
"1+	c #0F0F0F",
"2+	c #3C3C3C",
"3+	c #7A7A7A",
"4+	c #999999",
"5+	c #B8B8B8",
"6+	c #4C4C4C",
"7+	c #222222",
"8+	c #515151",
"9+	c #636363",
"0+	c #414141",
"a+	c #787878",
"b+	c #8E8E8E",
"c+	c #080808",
"d+	c #868686",
"e+	c #4D4D4D",
"f+	c #747474",
"g+	c #C7C7C7",
"                                                                                                                                                                                                                                                                                                                                                                                                                                                                                                                                ",
"                                                                                                                                                                                                                                                                                                                                                                                                                                                                                                                                ",
"                                                                                                                                                                                                                                                                                                                                                                                                                                                                                                                                ",
"                                                                                                                                                                                                                                                                                                                                                                                                                                                                                                                                ",
"                                                                                                                                                                                                                                                                                                                                                                                                                                                                                                                                ",
"                                                                                                                                                                                                                                                                                                                                                                                                                                                                                                                                ",
"                                                                                                                                                                                                                                                                                                                                                                                                                                                                                                                                ",
"                                                                                                                                                                                                                                                                                                                                                                                                                                                                                                                                ",
"                                                                                                                                                                                                                                                                                                                                                                                                                                                                                                                                ",
"                                                                                                                                                                                                                                                                                                                                                                                                                                                                                                                                ",
"                                                                                                                                                                                                                                                                                                                                                                                                                                                                                                                                ",
"                                                                                                                                                                                                                                                                                                                                                                                                                                                                                                                                ",
"                                                                                                                                                                                                                                                                                                                                                                                                                                                                                                                                ",
"                                                                                                                                                                                                                                                                                                                                                                                                                                                                                                                                ",
"                                                                                                                                                                                                                                                                                                                                                                                                                                                                                                                                ",
"                                                                                                                                                                                                                                                              .                                                                                                                                                                                                                                                                 ",
"                                                                                                                                                                                                                                                            . + .                                                                                                                                                                                                                                                               ",
"                                                                                                                                                                                                                                                          @       @                                                                                                                                                                                                                                                             ",
"                                                                                                                                                                                                                                                        +           +                                                                                                                                                                                                                                                           ",
"                                                                                                                                                                                                                                                      .               .                                                                                                                                                                                                                                                         ",
"                                                                                                                                                                                                                                                    .         #         .                                                                                                                                                                                                                                                       ",
"                                                                                                                                                                                                                                                  $         % & %         +                                                                                                                                                                                                                                                     ",
"                                                                                                                                                                                                                                                +         % & & & %         +                                                                                                                                                                                                                                                   ",
"                                                                                                                                                                                                                                              +         % & & & & & %         $                                                                                                                                                                                                                                                 ",
"                                                                                                                                                                                                                                          +           & & & % # % & & &           +                                                                                                                                                                                                                                             ",
"                                                                                                                                                                                                                                        +           & & & & * = - & & & &           +                                                                                                                                                                                                                                           ",
"                                                                                                                                                                                                                                    $           & & & & % - ; > , ' # & & & &           $                                                                                                                                                                                                                                       ",
"                                                                                                                                                                                                                                              & & & & # ' , > > > > ) # & & & &                                                                                                                                                                                                                                                 ",
"                                                                                                                                                                                                                            +             % & & & % ! ~ > > > , > > > = { % & & & %             +                                                                                                                                                                                                                               ",
"                                                                                                                                                                                                                        +               & & & & % * ; > > , ) # ' , > > ; - # & & & &               +                                                                                                                                                                                                                           ",
"                                                                                                                                                                                                                  . .             ! & & & & % ! ) , > > , - ] ^ / * , > > , ~ ! % & & & & !             . .                                                                                                                                                                                                                     ",
"                                                                                                                                                                                                            ( @ .               % & & & & # - ; > > > ; { _ : < < _ ! = > > > ; - # & & & & & !             . @ [                                                                                                                                                                                                               ",
"                                                                                                                                                                                                        + .                 % & & & & % { ~ , > > , ~ % ] ] ] ] ] ] ] % ) , > > , ~ { # & & & & %                 . .                                                                                                                                                                                                           ",
"                                                                                                                                                                                                $ } @ +               ! & & & & & # * ) ; > > > ; * | _ 1 2 2 2 2 2 1 _ | * = > > > ; ) * # & & & & & !               $ } } +                                                                                                                                                                                                   ",
"                                                                                                                                                                                          [ @ @ .                 # & & & & & % { ) ; > > > , ) # 3 2 3 & & % % % & & | 2 3 % ) , > > > , ~ { % & & & & & #                 . @ @ $                                                                                                                                                                                             ",
"                                                                                                                                                                                  + . @ (                   % % & & & & % # { ) ; > > > , = * & 3 | & % # ! ! ! ! ! # # % | 3 | { ~ , > > > ; ~ * # % & & & & % %                   ( @ . +                                                                                                                                                                                     ",
"                                                                                                                                                                    4 [ @ @ } 5 @                     ! % & & & & | & ! ' ~ ; > > > > = * % | | % # ! { * * - - - * * { { # % | | % { ~ > > > > , = ' { & | & & & & % !                     . 5 } @ @ $ 4                                                                                                                                                                       ",
"                                                                                                                                                      ( ( $ + . + +                             # % & & & & & & % * ) ; , > > > > ; * & | | % # ! * * - ' ' ) ) ) ' ' - - * ! # % | | & * = > > > > , ; ) * # & & & & & & % #                             + + . + $ ( (                                                                                                                                                         ",
"                                                                                                              + . @ @ @ . . . . . . . . @ @ @ @ +                                       & & & & & & & & & # { ' = , > > > > , ~ * % 3 | & % ! { * ' ' ) ) ~ ~ ~ ~ ~ ) ) ' ' - { ! # & | | & * ~ , > > > > , = ' { # & & & & & & & & &                                       + @ @ @ @ . . . . . . . . @ @ @ . +                                                                                                                 ",
"                                                                                                                                                                              % % & & & & & & & & % ! * ) = , , > > > > , ' # | | | & % ! { * ' ' ) ~ ~ = = ; ; ; ; = ~ ~ ) ' ' - { ! # & | | & ! ' , > > > > , , = ) * ! % & & & & & & & & % %                                                                                                                                                                                 ",
"                                                                                                          +                                                         & & & & & & & & & & & % # ! ' = , , > > > > > ; = - % 3 | | & % ! { - - ' ) ) ~ = = ; ; , , , ; ; = = ~ ) ) ' - - { ! # & | | 3 & * = ; > > > > > , , = ' ! # % % & & & & & & & & & &                                                         $                                                                                                             ",
"                                                                                                                  & & & & & & & & & & & & & & & & & & & & & & & & & & & & & & % % % # { - ) ; , > > > > > , , = ' ! | 2 3 | & % ! { - - ' ) ~ ~ = = ; ; , , , , , , , ; ; = = ~ ~ ) ' - - { ! # % | 3 2 | # - ~ , , > > > > > , ; ) - { # % % % & & & & & & & & & & & & & & & & & & & & & & & & & & & & & & %                                                                                                                   ",
"                                                                                                                & & & & & & & & & & & & & & & & & & & & & & & & & & & % # ! { - ~ = ; , > > > > > > , ; ~ * # | 2 3 3 & % # ! { - ' ' ) ~ ~ = ; ; , , , , > > > > > , , , , ; ; = ~ ~ ) ' ' - { ! # % & | 3 3 | % * ~ ; , > > > > > > , ; = ~ - { ! # % & & & & & & & & & & & & & & & & & & & & & & & & & & & #                                                                                                                 ",
"                                                                                                      +       & & & & % % % % % % % % % % % % % % % # # # # ! { * - ' ~ ; , > > > > > > > , , ; ~ ' { & 3 2 2 3 & % % # { * - - ' ) ) ~ = = ; ; , , , , > > > > > > > , , , , ; ; = = ~ ~ ) ' ' - * { ! % % & 3 2 1 2 & ! ' ~ ; , , > > > > > > > , ; ~ ' - * { ! # # # # % % % % % % % % % % % % % % % % & & &       +                                                                                                         ",
"                                                                                                    @       & & & % * - - - - - - - - - - - ' ) ) ) ~ ~ = ; , , > > > > > > > > > , ; = ~ - { % 3 2 1 2 3 | & % ! ! { * - ' ) ) ~ ~ = = ; ; , , , , > > > > > > > > > > > , , , , ; ; ; = ~ ~ ) ) ' ' * { { ! # & & 3 2 1 1 3 % { - ) = ; , > > > > > > > > > , , ; = ~ ~ ) ) ) ' - - - - - - - - - - - * # & & &       .                                                                                                       ",
"                                                                                                  +         & & % - , > > > > > > > > > > > > > > > > > > > > > > > > , , ; = ) ' * # & 3 2 2 2 3 3 | % % # ! { - - - ' ) ~ ~ = = ; ; , , , , > > > > > > > > > > > > > > > > > , , , , ; ; = = ~ ~ ) ' - - - { ! # % % & | 3 2 2 2 3 & # { ' ) = ; , , > > > > > > > > > > > > > > > > > > > > > > > > , - % & & %       +                                                                                                     ",
"                                                                                                [         & & & { ; > > > > > > > > > > > > > > > > , , , ; = = ~ ) - * { # & 3 2 1 1 2 3 3 | & % # ! ! { * - ' ' ) ) ~ ~ = ; ; ; , , , , > > > > > > > > > > > > > > > > > > > > > , , , , ; ; ; = ~ ~ ) ) ' ' - * { ! ! # # % | 3 3 2 1 1 1 3 & # { * - ' ~ = = ; ; , , > > > > > > > > > > > > > > > > ; * & & &         [                                                                                                   ",
"                                                                                                .       & & & ! = > > ; * { * * - - - - ' ' ' * * * { ! # % & & | 3 2 1 1 1 2 2 3 | & % % # ! { { * - - ' ' ) ~ ~ = = ; ; , , , , > > > > > > > > > > > > > > > > > > > > > > > > > > > > > , , , , ; ; = = ~ ~ ) ' ' - - * { { ! # # % & | 3 3 2 1 1 1 2 3 | & & % # ! { * * * - ' ' - - - - * * { * = > > = ! & & &       .                                                                                                   ",
"                                                                                              .       % & & % ) , > ; & : : / ] ] 1 1 2 2 3 3 2 1 2 2 1 1 2 2 2 3 3 3 3 | & & % # # ! ! { * * - - ' ) ) ) ~ ~ = ; ; , , , , > > > > > > > > > > > > > > > > > > > > > > > > > > > > > > > > > > > , , , , ; ; = = ~ ) ) ) ' - - * * { ! ! # # % % & | 3 3 3 3 2 2 2 1 1 2 2 1 2 2 3 2 2 1 1 ] ] / : : | ; > > ) # & & &       .                                                                                                 ",
"                                                                                            .         & & & - , > , * 6 7 : 6 ] ] 1 2 2 3 3 3 3 3 | | | | & & % % % # # # ! ! { * * - - - ' ' ) ) ~ = = ; ; ; , , , , , > > > > > > > > > > > > > > > > > > > > > > > > > > > > > > > > > > > > > > > , , , , , ; ; ; = = ~ ) ) ' ' - - - * * { { ! # # # % % % & & | | | | 3 3 3 3 3 2 2 1 ] ] 6 : 7 : { , > , ' % & &         .                                                                                               ",
"                                                                                                    & & & { ; > > ~ 2 : / ] 1 2 3 | & & % % % % # # # # ! ! ! { { { * * - - - - ' ) ) ~ ~ ~ = = = ; ; , , , , > > > > > > > > > > > > > > > > > > > > > > > > > > > > > > > > > > > > > > > > > > > > > > > > > , , , , ; ; = = = ~ ~ ~ ) ) ' - - - - * * { { { ! ! ! # # # # # % % % & & | 3 2 1 _ / : _ ) > > ; * & & &         $                                                                                             ",
"                                                                                          +       % & & # ~ > > ; % 6 ] 1 3 | & % # ! ! { { { * * * * * - - - - ' ' ' ) ) ~ ~ ~ = = = ; ; ; ; , , , , , , > > > > > > > > > > > > > > > > > > > > > > > > > > > > > > > > > > > > > > > > > > > > > > > > > > > > > , , , , , , ; ; ; ; = = = ~ ~ ~ ) ) ) ' ' - - - - * * * * * { { { ! ! # % & | 3 2 ] 6 | = > > = # & & &       +                                                                                             ",
"                                                                                        .       % & & & ) , > , { _ 1 3 & % # { * * - ' ' ' ' ) ) ) ) ) ) ) ~ ~ ~ = = = = ; ; ; , , , , , , > > > > > > > > > > > > > > > > > > > > > > > > > > > > > > > > > > > > > > > > > > > > > > > > > > > > > > > > > > > > > > > > > > > , , , , , , ; ; ; = = = = ~ ~ ~ ) ) ) ) ) ) ) ' ' ' ' - - * { # % & | 1 _ { , > > ) % & & %       .                                                                                           ",
"                                                                                                & & & * , > > ) 3 2 | % ! { * ' ) ) ~ ~ ~ = = = = = = = ; ; ; ; ; , , , , , , , , , > > > > > > > > > > > > > > > > > > > > > > > > > > > > > > > > > > > > > > > > > > > > > > > > > > > > > > > > > > > > > > > > > > > > > > > > > > > , , , , , , , , , ; ; ; ; ; ; = = = = = = ~ ~ ~ ) ) ' - * ! % | 2 2 ' , > , - & & &         +                                                                                         ",
"                                                                                              & & & ! = > > = % 2 & # { * ' ) ~ = = ; ; ; ; ; ; ; , , , , , , , , , , , , , > > > > > > > > > > > > > > > > > > > > > > > > > > > > > > > > > > > > > > > > > > > > > > > > > > > > > > > > > > > > > > > > > > > > > > > > > > > > > > > > > > > , , , , , , , , , , , , , , ; ; ; ; ; ; = = ~ ) ' * { # & 2 & = > > ; { & & &                                                                                                 ",
"                                                                                    +       % & & # ~ > > , { 2 & # { - ' ~ = ; ; , , , , > > > > > > > > > > > > > > > > > > > > > > > > > > > > > > > > > > > > > > > > > > > > > > > > > > > > > > > > > > > > > > > > > > > > > > > > > > > > > > > > > > > > > > > > > > > > > > > > > > > > > > > > > > > > > > > > > > > > > , , , , ; ; = ~ ) - { # & 2 ! ; > > = # & & %       $                                                                                       ",
"                                                                                  $       # & & % ' , > , - 3 | # { - ' ) ~ ; ; , , , > > > > > > > > > > > > > > > > , , , > > > > > > > > > > > > > > > > > > > > > > > > > > > > > > > > > > > > > > > > > > > > > > > > > > > > > > > > > > > > > > > > > > > > > > > > > > > > > > > > > > > , , , > > > > > > > > > > > > > > > > , , , ; ; ~ ) ' - { # | 3 * , > , ) % & & #       $                                                                                     ",
"                                                                                        ! & & & * ; > > ) 3 3 % ! * ' ) ~ = ; , , , > > > > > > > > > > > > , , , , , , , , , , , , , > > > > > > > > > > > > > > > > > > > > > > > > > > > > > > > > > > > > > > > > > > > > > > > > > > > > > > > > > > > > > > > > > > > > > > > > > , , , , , , , , , , , , , , > > > > > > > > > > > , , , ; = ~ ) ' * ! % 3 3 ) > > , * & & & !                                                                                           ",
"                                                                                $       & & & ! = > > ; % 3 % ! * ' ) ~ = ; , , , > > > > > > > > , , , , , , , ; ; ; ; ; ; ; ; ; ; , , , , , > > > > > > > > > > > > > > > > > > > > > > > > > > > > > > > > > > > > > > > > > > > > > > > > > > > > > > > > > > > > > > > > > , , , , , , ; ; ; ; ; ; ; ; ; ; , , , , , , > > > > > > > > , , , ; = ~ ) ' * ! % 3 % ; > > = { & & &                                                                                           ",
"                                                                              +       & & & # ) , > , { 3 & # { - ' ~ = ; , , , > > > > > > > > , , , , , ; ; ; ; ; = = = = = = ; ; ; ; , , , , , > > > > > > > > > > > > > > > > > > > > > > > > > > > > > > > > > > > > > > > > > > > > > > > > > > > > > > > > > > > > > , , , , , ; ; ; ; = = = = = = = = ; ; ; ; ; , , , , > > > > > > > > , , ; = ~ ' - { ! & 2 ! ; > > ~ # & & &       +                                                                                 ",
"                                                                                    # & & % - , > > ' 3 | % ! - ' ) = ; , , , > > > > > > > > , , , ; ; = ; = = ~ ~ ~ ) ) ) ~ ~ ~ ~ = = ; ; ; , , , , > > > > > > > > > > > > > > > > > > > > > > > > > > > > > > > > > > > > > > > > > > > > > > > > > > > > > > > > > > , , , ; ; ; = = = ~ ~ ~ ) ) ) ) ~ ~ ~ = = = ; ; , , , , > > > > > > > , , , ; = ~ ' - { # | 3 * , > , ' % & & #                                                                                       ",
"                                                                            $       & & & * ; > > ~ & 3 % ! * ' ) = = ; , , > > > > > > > > , , ; ; ; = = ~ ~ ) ) ' ' ' ' ' ' ' ) ) ) ~ ~ = = ; , , , > > > > > > > > > > > > > > > > > > > > > > > > > > > > > > > > > > > > > > > > > > > > > > > > > > > > > > > > > , , , ; ; = = ~ ) ) ) ' ' ' - - ' ' ' ) ) ~ ~ = = ; ; , , , > > > > > > > , , , = = ) ' - ! % | | ) > > , * & & &                                                                                       ",
"                                                                          .       & & & ! = > > = # 2 & # * ' ) ~ = ; , , > > > > > > > > , , , ; ; = ~ ~ ) ) ' ' - - - - - - - ' ' ' ) ~ ~ = = ; , , , > > > > > > > > > > > > > > > > > > > > > > > > > > > > > > > > > > > > > > > > > > > > > > > > > > > > > > > > , , ; = = ~ ~ ) ) ' ' - - * * * - - - ' ' ) ) ~ ~ = = ; , , > > > > > > > > , , ; = ~ ) ' * ! & 2 & = > > = ! & & &       .                                                                             ",
"                                                                        .       & & & % ' > > , { 3 | # { - ) ~ = ; ; , > > > > > > > > > , , ; ; = ~ ~ ) ' - - - * { { { { { { * - - ' ) ) ~ ~ = ; , , > > > > > > > > > > > > > > > > > > > > > > > > > > > > > > > > > > > > > > > > > > > > > > > > > > > > > > > > , , ; ~ ~ ) ) ' ' - * * { ! ! ! ! { * - - - ' ) ) ~ = ; ; , > > > > > > > > > , ; ; = ~ ) - { # | 3 ! , > > ) # & & %       .                                                                           ",
"                                                                      $ $       & & & * , > , ' | | % ! * ' ) ~ ; ; , , > > > > > > > > > , , ; = ~ ) ' ' - * * ! # # % % # # # ! { * - ' ' ) ) ~ = ; , > > > > > > > > > > > > > > > > > > > > > > > > > > > > > > > > > > > > > > > > > > > > > > > > > > > > > > > > , ; = ~ ) ' ' - * { { ! # # % & % # # ! { * - ' ) ) ~ = ; , , > > > > > > > > > , ; ; ~ ) ' * { % | 3 - , > , - & & &         $                                                                         ",
"                                                                      +       & & & ! ; > > ~ & 2 & # * ' ) ~ = ; , , > > > > > > > > > > , ; = ~ ) ' - - { ! ! # % & & & & & % # ! ! { - - ' ) ~ = ; , , > > > > > > > > > > > > > > > > > > > > > > > > > > > > > > > > > > > > > > > > > > > > > > > > > > > > > > , ; = ~ ) ) ' - * { ! # % & & & | & & % # ! ! { * ' ) ) ~ ; , , > > > > > > > > > , , ; = ~ ) ' * # & 2 | ~ > > ; { & & &       +                                                                         ",
"                                                                    +       & & & % ~ > > ; # _ 3 % ! * ' ) = ; ; , , > > > > > > > > > > , ; = ) ' - * { ! # % & & { ' ~ ) * # & % # ! { * - ' ) ~ ; , , > > > > > > > > > > > > > > > > > > > > > > > > > > > > > > > > > > > > > > > > > > > > > > > > > > > > > > , ; = ~ ' ' - { ! # % & | # - ) ) ' ! | | % # # { * ' ) ~ = , , > > > > > > > > > , , ; ; = ) ' - ! % | 1 % = > > ~ # & & &       +                                                                       ",
"                                                                  $       % & & % - > > , ! ] 1 | % ! - ' ~ = ; , , , > > > > > > > > > > , ; ~ ) ' * { ! % & | & ) , > > > , = ! | & # # ! * - ' ) = ; , > > > > > > > > > > > > > > > > > > > > > > > > > > > > > > > > > > > > > > > > > > > > > > > > > > > > > > , ; ~ ) ' - { ! # % | | * ; > > > > ; - | | & # # { * ' ) ~ ; , > > > > > > > > > , , , ; = ~ ' - { # | 1 ] # ; > > ' % & & %       $                                                                     ",
"                                                                $         & & & { , > > ' ] 6 1 | % ! - ' ~ = ; , , , > > > > > > > > > > , = ) ' - { ! % & 3 | ) > > , ~ = > > ~ % 3 & % # { * ' ) ~ ; , > > > > > > > > > > > > > > > > > > > > > > > > > > > > > > > > > > > > > > > > > > > > > > > > > > > > > > , ; ~ ' - { ! # & 3 2 ! ; > > ~ ~ , > , * 2 3 | % # { - ' ~ = , > > > > > > > > > , , , ; = ~ ' - { # | 1 / ] - > > , * & & &         $                                                                   ",
"                                                                +       & & & # = > > ~ 1 7 6 _ | % ! - ' ~ ~ ; ; , , , > > > > > > > > > , = ) - { ! # & 3 1 # , > = : 8 9 { > > - 2 2 | % # { - ' ~ = ; > > > > > > > > > > > > > > > > > > > > > > > > > > > > > > > > > > > > > > > > > > > > > > > > > > > > > > ; = ) ' * ! # & 3 1 3 ) > , & 0 a 1 ; > ; & _ 2 | % ! * ' ) = , , > > > > > > > , , , ; ; ~ ) ' - { % | 1 6 7 _ ) > > = ! & & &       + $                                                                 ",
"                                                              +       % & & % ) > > ; 3 b c 6 _ 3 & # * ' ) ~ = ; ; , , , > > > > > > > , ; ~ ' * ! # & 3 1 ] * , , d e f g h ; > ~ 2 _ 2 | % ! * ' ) = ; > > > > > > > > > > > > > > > > > > > > > > > > > > > > > > > > > > > > > > > > > > > > > > > > > > > > > > ; = ) - { # & 3 1 ] | ; > # i j k l 3 > , { ] 1 2 & # ! - ' ~ ; , > > > > > > , , , ; ; = ~ ) ' * ! % 3 _ 6 7 b 2 = > > ) % & & %       +                                                                 ",
"                                                            .         & & & - , > > ) : b d : ] 2 | % ! * ' ) ~ = ; ; , , , > > > > > > , ; ~ ' * ! % 3 1 ] / ' > ~ m n o o p * > ; 3 / _ 3 & # { - ) = ; > > > > > > > > > > > > > > > > > > > > > > > > > > > > > > > > > > > > > > > > > > > > > > > > > > > > > > , ~ ' * ! % | 1 ] / & > > b q o o r s , > - 6 ] 1 3 & ! * ' ~ ; , > > > > > , , , ; ; = ~ ) ' - ! % & 2 ] : d b < ' > > > - % & &         .                                                               ",
"                                                                    & & & { ; > > > ; - & _ / / _ 3 & # { - ' ) ~ = ; ; ; , , , > > > > , ; ) - { % | 2 _ 6 : ) > ~ t u o o v # > ; 2 6 ] 1 3 % ! * ' = ; > > > > > > > > > > > > > > > > > > > > > > > > > > > > > > > > > > > > > > > > > > > > > > > > > > > > > > ; ~ ' { # & 2 _ / : & > > w x o o y z ; > ' < 6 ] 2 | % { - ~ ; , > > > , , , ; ; ; = ~ ) ' - { # & 3 _ / 6 ] | * ; > > > , * & & &         +                                                             ",
"                                                          +       & & & % - = ; > > > > > = * & 2 1 3 % # { - ' ) ~ = = ; ; , , , > > > , = ) - ! % 3 1 ] : < ' > ~ t A o o v # > ; _ < 6 ] 2 & # { ' ~ ; > > > > > > > > > > > > > > > > > > > > > > > > > > > > > > > > > > > > > > > > > > > > > > > > > > > > > > ; ~ ' { % | 1 / : 7 3 > > w x o o B z ; > - 7 < / _ 3 & ! - ) ; , > > , , , ; ; = = ~ ) ' - { ! % 3 1 2 & { ~ > > > > > , = - % & & &       +                                                             ",
"                                                        .       % & & & & % ! { ' = , > > > > ; ) { & 3 & # ! * ' ) ) ~ = ; ; , , , > > , = ) * # & 2 _ 6 7 c - > ~ t A o o v # > ; ] c : / 1 | # { ' ~ ; > > > > > > > > > > > > > > > > > > > > > > > > > > > > > > > > > > > > > > > > > > > > > > > > > > > > > > ; ) - ! & 3 _ 6 7 d 2 > > w x o o B z ; > - d 7 6 ] 2 & ! * ) = , > , , , ; ; = ~ ) ) ' * { # & 3 | ! ' ; > > > > , = ' * ! % & & & & %       .                                                           ",
"                                                                # % & & & & & & % # { ) = , > > > , ~ { & & % ! * - ' ) ~ = ; ; , , , > , = ' { % | 1 ] : c d - > ~ t A o o v # > ; / d < 6 _ 3 % { - ~ ; > > > > > > > > > > > > > > > > > > > > > > > > > > > > > > > > > > > > > > > > > > > > > > > > > > > > > , = ) - ! | 2 ] : c ^ 2 > > w x o o B z ; > * b d < ] 1 | # * ' = , , , , ; ; = ~ ) ' - * ! # & & { ~ , > > > > ; ) * # % & & & & & & % #                                                                   ",
"                                                      $               * % & & & & & & % ! - = , > > > , ) ! & % ! * - ' ) ~ = ; ; , , > , ~ ' { % 3 1 / 7 ^ b - > ~ t A o o v # > ; 6 ^ 7 : ] 2 & ! - ~ ; > > > > > > > > > > > > > > > > > > > > > > > > > > > > > > > > > > > > > > > > > > > > > > > > > > > > > , = ) * # | 1 / < d b 1 > > w x o o B z ; > * C ^ 7 / _ 3 % { ' = , , , ; ; = ~ ) ' - * ! % & ! ) ; > > > , = ' { % & & & & & & % *               $                                                         ",
"                                                      $ $                   # & & & & & & % # * ~ , > > > ; - % % # * - ' ) ~ = ; ; , , , = - { % 3 _ : 7 ^ C * > ~ t A o o v # > ; : C d : / 2 & ! - ~ ; > > > > > > > > > > > > > > > > > > > > > > > > > > > > > > > > > > > > > > > > > > > > > > > > > > > > > , = ' * # 3 _ 6 7 ^ D _ > > w x o o B z ; > * D b c : _ 3 % { ' = ; , ; ; = ~ ) ' - * ! % % - = > > > > = - # % & & & & & & #                   $ $                                                         ",
"                                                              $                   # % & & & & & % * = > > > , ) # % ! { - ' ) ~ = ; ; , ; ~ - ! & 2 ] : c b D * > ~ t A o o v # > ; < D d < / 1 | ! * ) ; > > > > > > > > > > > > > > > > > > > > > > > > > > > > > > > > > > > > > > > > > > > > > > > > > > > > > , = ' * % 3 ] : c b s ] > > w x o o B z ; > * s C d < ] 2 % { - ~ ; ; ; = ~ ) ' - { ! % # ) , > > > = * # % & & & & % #                   $                                                                 ",
"                                                                    + $                 & & & & & & # ' ; > > , ~ ! % ! { - ' ) ~ = ; , ; ~ - ! & 2 ] < d C s * > ~ t A o o v # > ; < s ^ 7 6 _ | # * ) ; , > > > > > > > > > > > > > > > > > > > > > > > > > > > > > > > > > > > > > > > > > > > > > > > > > > > > , = ' { % 2 ] : d C E ] > > w x o o B z ; , { w D ^ < / 2 & ! - ~ = ; = = ) ' - { ! % # ~ , > > , ) # & & & & & &                 $ +                                                                       ",
"                                                                                              & & & & % { = > > > = { % ! * - ' ~ = ; ; ; ) - ! | 1 / 7 ^ D E { > ~ t A o o v # > ; 7 s b c 6 _ 3 # * ) = , > > > > > > > > > > > > > > > > > > > > > > > > > > > > > > > > > > > > > > > > > > > > > > > > > > > > , = ' { % 2 / < ^ D w / > > w x o o B z ; , { w s b 7 / 1 | ! - ~ = ; = ~ ' - * ! % { ~ > > > = { % & & & &                                                                                                 ",
"                                                                                  +               & & & & # ~ , > > = ! % ! * - ) ~ = ; = ) - ! | 1 6 7 ^ s E { > ~ t A o o v # > = 7 E C c 6 ] 3 # * ) = , > > > > > > > > > > > > > > > > > > > > > > > > > > > > > > > > > > > > > > > > > > > > > > > > > > > > , = ' { & 1 / 7 ^ s w / > > w x o o B z ; , ! F E b 7 6 1 | # * ) ~ = ~ ) - * ! % ! = > > > ~ # & & & &               +                                                                                     ",
"                                                                                      + +           & & & & # ) , > > ~ ! % ! * ' ) ~ = = ) * ! | 1 6 7 b s w { > ~ t A o o v # > = c w C c : ] 3 # * ) = , > > > > > > > > > > > > > > > > > > > > > > > > > > > > > > > > > > > > > > > > > > > > > > > > > > > > , = ' { & 1 / 7 ^ E F / > > w x o o B z ; , ! F E b c : _ | # * ) ~ ~ ) ' * ! % # ~ > > , ~ # & & & &           $ +                                                                                         ",
"                                                                                          $             & & & % ) > > > ) # # { - ' ~ = ~ ' * # | _ 6 c b s w { > ~ t A o o v # > = c w D d : ] 2 % * ) = , > > > > > > > > > > > > > > > > > > > > > > > > > > > > > > > > > > > > > > > > > > > > > > > > > > > > , = ' ! & 1 6 7 b E F 6 > > w x o o B z ; , ! G w C c : _ | # * ' ) ~ ' - { # # ' > > > ) % & & &             $                                                                                             ",
"                                                                                              . .         & & & # ~ > > , - % # { - ) ~ ~ ' * # 3 _ : c b E w { > ~ t A o o v # > = d F D d : / 2 % { ) = , > > > > > > > > > > > > > > > > > > > > > > > > > > > > > > > > > > > > > > > > > > > > > > > > > > > > , = ' ! | _ 6 c b E F 6 > > w x o o B z ; , ! z w C d : _ | % { - ) ) ' { # % * , > > = ! & & &           .                                                                                                 ",
"                                                                                                $ +         & & & ! = > > = ! % ! * ' ~ ) ' * # 3 _ : c C E F { > ~ t A o o v # > = d F D d < / 2 % { ) = , > > > > > > > > > > > > > > > > > > > > > > > > > > > > > > > > > > > > > > > > > > > > > > > > > > > > , = - ! | _ 6 c b w G 6 > > w x o o B z ; , ! z w C d : _ | % { - ' ' * ! % # = > > = { & & &         + $                                                                                                   ",
"                                                                                                    +         & & & * , > > ' % # { - ) ) - * # 3 _ : c C E F { > ~ t A o o v # > = d F D d < / 2 % { ) = , > > > > > > > > > > > > > > > > > > > > > > > > > > > > > > > > > > > > > > > > > > > > > > > > > > > > , ~ - ! | _ 6 c b w G 6 > > w x o o B z ; , ! z w D d : _ 3 % { * - - { # % - > > , - % & & %       +                                                                                                       ",
"                                                                                                      $       % & & # ) > > ; ! % ! * ' ' - { # 3 _ : c C E F { > ~ t A o o v # > = d F D d < / 2 % { ) = , > > > > > > > > > > > > > > > > > > > > > > > > > > > > > > > > > > > > > > > > > > > > > > > > > > > > , ~ - ! | _ 6 c b w G 6 > > w x o o B z ; , ! z w D d : _ 3 % ! * * * ! % # = > > ~ # & & %       $                                                                                                         ",
"                                                                                                        $       & & & { ; > , * & # { - - - { % | _ : c C E F { > ~ t A o o v # > = d F D d < / 2 % { ) = , > > > > > > > > > > > > > > > > > > > > > > > > > > > > > > > > > > > > > > > > > > > > > > > > > > > > , ~ - ! | _ 6 c b w G 6 > > w x o o B z ; , ! z w D d : _ 3 & ! { * { # & * , > , * & & &       $                                                                                                           ",
"                                                                                                          +       & & % ) > > ) % % { * - * { % | _ : c C E F { > ~ t A o o v # > = d F D d < / 2 % { ) = , > > > > > > > > > > > > > > > > > > > > > > > > > > > > > > > > > > > > > > > > > > > > > > > > > > > > , ~ - ! | _ 6 c b w G 6 > > w x o o B z ; , ! z w D d : _ 3 & # { { ! % & ) > > ~ % & & #                                                                                                                   ",
"                                                                                                          $       % & & * , > = # & ! * * * { % 3 _ : c C E F { > ~ t A o o v # > = d F D d < / 2 % { ) = , > > > > > > > > > > > > > > > > > > > > > > > > > > > > > > > > > > > > > > > > > > > > > > > > > > > > , ~ - ! | _ 6 c b w G 6 > > w x o o B z ; , ! z w D d : _ 3 & # ! { # & % = > , - & & %       $                                                                                                             ",
"                                                                                                                    & & ! = > , ! & # { * * { % 3 _ : c C E F { > ~ t A o o v # > = d F D d < / 2 % { ) = , > > > > > > > > > > > > > > > > > > > > > > > > > > > > > > > > > > > > > > > > > > > > > > > > > > > > , ~ - ! | _ 6 c b w G 6 > > w x o o B z ; , ! z w D d : _ 3 & # ! ! # & # , > ; { & & %                                                                                                                     ",
"                                                                                                                    & & # ~ > > - | # ! * { ! % 3 _ : c C E F { > ~ t A o o v # > = d F D d < / 2 % { ) = , > > > > > > > > > > > > > > > > > > > > > > > > > > > > > > > > > > > > > > > > > > > > > > > > > > > > , ~ - ! | _ 6 c b w G 6 > > w x o o B z ; , ! z w D d : _ 3 & % ! # % | * > > ~ # & &       $                                                                                                               ",
"                                                                                                                    & & % ' , > ) | % ! { ! ! & 3 _ : c C E F { > ~ t A o o v # > = d F D d < / 2 % { ) = , > > > > > > > > > > > > > > > > > > > > > > > > > > > > > > > > > > > > > > > > > > > > > > > > > > > > , ~ - ! | _ 6 c b w G 6 > > w x o o B z ; , ! z w D d : _ 2 | % # # % | ) > > ) % & &                                                                                                                       ",
"                                                                                                                    # & & - , > ; & & ! { ! # & 3 _ : c C E F { > ~ t A o o v # > = d F D d < / 2 % { ) = , > > > > > > > > > > > > > > > > > > > > > > > > > > > > > > > > > > > > > > > > > > > > > > > > > > > > , ~ - ! | _ 6 c b w G 6 > > w x o o B z ; , ! z w D d : ] 2 | % % % & & ; > , ' & & #                                                                                                                       ",
"                                                                                                              +     * & & { ; > , % | # ! ! # & 3 _ : c C E F { > ~ t A o o v # > = d F D d < / 2 % { ) = , > > > > > > > > > > > > > > > > > > > > > > > > > > > > > > > > > > > > > > > > > > > > > > > > > > > > , ~ - ! | _ 6 c b w G 6 > > w x o o B z ; , ! z w D d : ] 2 | % % % | & , > , * & & *     +                                                                                                                 ",
"                                                                                                              +     ' & & { ; > > # 3 # # ! # & 3 _ : c C E F { > ~ t A o o v # > = d F D d < / 2 % { ) = , > > > > > > > > > > > > > > > > > > > > > > > > > > > > > > > > > > > > > > > > > > > > > > > > > > > > , ~ - ! | _ 6 c b w G 6 > > w x o o B z ; , ! z w D d : ] 2 | & & & 3 % > > ; { & & '     .                                                                                                                 ",
"                                                                                                                      & | # = > > ! 3 % # ! # & 3 _ : c C E F { > ~ t A o o v # > = d F D d < / 2 % { ) = , > > > > > > > > > > > > > > > > > > > > > > > > > > > > > > > > > > > > > > > > > > > > > > > > > > > > , ~ - ! | _ 6 c b w G 6 > > w x o o B z ; , ! z w D d : ] 2 | & & & 3 # > > ; ! | &       .                                                                                                                 ",
"                                                                                                                      & | # = > > # 3 % # # # & 3 _ : c C E F { > ~ t A o o v # > = d F D d < / 2 % { ) = , > > > > > > > > > > > > > > > > > > > > > > > > > > > > > > > > > > > > > > > > > > > > > > > > > > > > , ~ - ! | _ 6 c b w G 6 > > w x o o B z ; , ! z w D d : ] 2 | & & & 2 % > > = # | &       .                                                                                                                 ",
"                                                                                                                      & | # = > > # 3 % # # % & 3 _ : c C E F { > ~ t A o o v # > = d F D d < / 2 % { ) = , > > > > > > > > > > > > > > > > > > > > > > > > > > > > > > > > > > > > > > > > > > > > > > > > > > > > , ~ - ! | _ 6 c b w G 6 > > w x o o B z ; , ! z w D d : ] 2 3 & | | 2 % > > = # | &       @                                                                                                                 ",
"                                                                                                                      & | # = > > # 3 % % # % & 3 _ : c C E F { > ~ t A o o v # > = d F D d < / 2 % { ) = , > > > > > > > > > > > > > > > > > > > > > > > > > > > > > > > > > > > > > > > > > > > > > > > > > > > > , ~ - ! | _ 6 c b w G 6 > > w x o o B z ; , ! z w D d : ] 2 3 & | | 2 % > > = # | &       @                                                                                                                 ",
"                                                                                                                      & | # = > > # 3 % % # % & 3 _ : c C E F { > ~ t A o o v # > = d F D d < / 2 % { ) = , > > > > > > > > > > > > > > > > > > > > > > > > > > > > > > > > > > > > > > > > > > > > > > > > > > > > , ~ - ! | _ 6 c b w G 6 > > w x o o B z ; , ! z w D d : ] 2 3 & | | 2 % > > = # | &       .                                                                                                                 ",
"                                                                                                                      & | # = > > # 2 % % # % & 3 _ : c C E F { > ~ t A o o v # > = d F D d < / 2 % { ) = , > > > > > > > > > > > > > > > > > > > > > > > > > > > > > > > > > > > > > > > > > > > > > > > > > > > > , ~ - ! | _ 6 c b w G 6 > > w x o o B z ; , ! z w D d : ] 2 3 & | | 2 % > > ; ! | & '     .                                                                                                                 ",
"                                                                                                              .     ' & & { ; > > % 2 % % # # & 3 _ : c C E F { > ~ t A o o v # > = d F D d < / 2 % { ) = , > > > > > > > > > > > > > > > > > > > > > > > > > > > > > > > > > > > > > > > > > > > > > > > > > > > > , ~ - ! | _ 6 c b w G 6 > > w x o o B z ; , ! z w D d : ] 2 3 & | | 2 & > > ; { & & '     .                                                                                                                 ",
"                                                                                                              +     - & & { ; > , & 2 % # # # & 3 _ : c C E F { > ~ t A o o v # > = d F D d < / 2 % { ) = , > > > > > > > > > > > > > > > > > > > > > > > > > > > > > > > > > > > > > > > > > > > > > > > > > > > > , ~ - ! | _ 6 c b w G 6 > > w x o o B z ; , ! z w D d : ] 2 | & & | 2 | , > , * & & -     .                                                                                                                 ",
"                                                                                                              $     { & & * , > ; | 3 % # # # & 3 _ : c C E F { > ~ t A o o v # > = d F D d < / 2 % { ) = , > > > > > > > > > > > > > > > > > > > > > > > > > > > > > > > > > > > > > > > > > > > > > > > > > > > > , ~ - ! | _ 6 c b w G 6 > > w x o o B z ; , ! z w D d : ] 2 | & & & 2 3 ; > , - & & {     $                                                                                                                 ",
"                                                                                                                    # & & - , > = 3 3 % # ! # & 3 _ : c C E F { > ~ t A o o v # > = d F D d < / 2 % { ) = , > > > > > > > > > > > > > > > > > > > > > > > > > > > > > > > > > > > > > > > > > > > > > > > > > > > > , ~ - ! | _ 6 c b w G 6 > > w x o o B z ; , ! z w D d : _ 2 | & & & 3 2 ~ > , ' & & #                                                                                                                       ",
"                                                                                                                    % & & ' , > ) 2 3 % # ! # & 3 _ : c C E F { > ~ t A o o v # > = d F D d < / 2 % { ) = , > > > > > > > > > > > > > > > > > > > > > > > > > > > > > > > > > > > > > > > > > > > > > > > > > > > > , ~ - ! | _ 6 c b w G 6 > > w x o o B z ; , ! z w D d : _ 2 | & & & 3 2 ' > > ) & & %                                                                                                                       ",
"                                                                                                                    & & % ' , > - 2 | % # ! # & 3 _ : c C E F { > ~ t A o o v # > = d F D d < / 2 % { ) = , > > > > > > > > > > > > > > > > > > > > > > > > > > > > > > > > > > > > > > > > > > > > > > > > > > > > , ~ - ! | _ 6 c b w G 6 > > w x o o B z ; , ! z w D d : _ 2 | % & & | 1 * > > ~ # & &                                                                                                                       ",
"                                                                                                                    & & % ) > > { 2 | # ! ! ! % 3 _ : c C E F { > ~ t A o o v # > = d F D d < / 2 % { ) = , > > > > > > > > > > > > > > > > > > > > > > > > > > > > > > > > > > > > > > > > > > > > > > > > > > > > , ~ - ! | _ 6 c b w G 6 > > w x o o B z ; , ! z w D d : _ 2 | % % % | 2 ! > > ~ # & &                                                                                                                       ",
"                                                                                                                    & & ! = > > # 2 | # ! { ! % 3 _ : c C E F { > ~ t A o o v # > = d F D d < / 2 % { ) = , > > > > > > > > > > > > > > > > > > > > > > > > > > > > > > > > > > > > > > > > > > > > > > > > > > > > , ~ - ! | _ 6 c b w G 6 > > w x o o B z ; , ! z w D d : _ 3 & % % % | 2 & , > = ! & &                                                                                                                       ",
"                                                                                                                    & & { ; > ; & 2 & # { { ! % 3 _ : c C E F { > ~ t A o o v # > = d F D d < / 2 % { ) = , > > > > > > > > > > > > > > > > > > > > > > > > > > > > > > > > > > > > > > > > > > > > > > > > > > > > , ~ - ! | _ 6 c b w G 6 > > w x o o B z ; , ! z w D d : _ 3 & # % % & 2 | ; > ; { & &                                                                                                                       ",
"                                                                                                                  % & & * , > = | 2 & ! { { { % 3 _ : c C E F { > ~ t A o o v # > = d F D d < / 2 % { ) = , > > > > > > > > > > > > > > > > > > > > > > > > > > > > > > > > > > > > > > > > > > > > > > > > > > > > , ~ - ! | _ 6 c b w G 6 > > w x o o B z ; , ! z w D d : _ 3 & # # # & 2 | = > , * & & %                                                                                                                     ",
"                                                                                                                  % & & - > > ~ 3 2 % ! * { { % 3 _ : c C E F { > ~ t A o o v # > = d F D d < / 2 % { ) = , > > > > > > > > > > > > > > > > > > > > > > > > > > > > > > > > > > > > > > > > > > > > > > > > > > > > , ~ - ! | _ 6 c b w G 6 > > w x o o B z ; , ! z w D d : _ 3 & # # # & 2 2 ) > , ' & & %                                                                                                                     ",
"                                                                                                                  & & % ' > > ' 2 3 % { * { { % | _ : c C E F { > ~ t A o o v # > = d F D d < / 2 % { ) = , > > > > > > > > > > > > > > > > > > > > > > > > > > > > > > > > > > > > > > > > > > > > > > > > > > > > , ~ - ! | _ 6 c b w G 6 > > w x o o B z ; , ! z w D d : _ 3 & ! ! ! % 3 2 - > > ) % & &                                                                                                                     ",
"                                                                                                                  & & % ~ > > * 2 3 # { * * { % | _ : c C E F { > ~ t A o o v # > = d F D d < / 2 % { ) = , > > > > > > > > > > > > > > > > > > > > > > > > > > > > > > > > > > > > > > > > > > > > > > > > > > > > , ~ - ! | _ 6 c b w G 6 > > w x o o B z ; , ! z w D d : _ 3 & ! ! ! # | 2 { > > = # & &                                                                                                                     ",
"                                                                                                          $       & & # = > , # 1 | # * - * { # 3 _ : c C E F { > ~ t A o o v # > = d F D d < / 2 % { ) = , > > > > > > > > > > > > > > > > > > > > > > > > > > > > > > > > > > > > > > > > > > > > > > > > > > > > , ~ - ! | _ 6 c b w G 6 > > w x o o B z ; , ! z w D d : _ 3 & ! { { # | 1 % , > ; ! | &       $                                                                                                             ",
"                                                                                                          +     ! & & { ; > , % 2 & ! * - - * # 3 _ : c C E F { > ~ t A o o v # > = d F D d < / 2 % { ) = , > > > > > > > > > > > > > > > > > > > > > > > > > > > > > > > > > > > > > > > > > > > > > > > > > > > > , ~ - ! | _ 6 c b w G 6 > > w x o o B z ; , ! z w D d : _ 3 % ! { { # & 2 | ; > , { & & !     +                                                                                                             ",
"                                                                                                          +     # & & * , > = | 2 & ! - ' - * # 3 _ : c C E F { > ~ t A o o v # > = d F D d < / 2 % { ) = , > > > > > > > > > > > > > > > > > > > > > > > > > > > > > > > > > > > > > > > > > > > > > > > > > > > > , ~ - ! | _ 6 c b w G 6 > > w x o o B z ; , ! z w D d : _ | % { * * ! % 2 3 ~ > > - & & #     $                                                                                                             ",
"                                                                                                                & & & - > > ) 2 2 % { - ' ' * # 3 _ : c C E F { > ~ t A o o v # > = d F D d < / 2 % { ) = , > > > > > > > > > > > > > > > > > > > > > > > > > > > > > > > > > > > > > > > > > > > > > > > > > > > > , ~ - ! | _ 6 c b w G 6 > > w x o o B z ; , ! z w D d : _ | % { * * { % 2 2 ' > > ' % & &                                                                                                                   ",
"                                                                                                                & & % ) > > - 2 3 % { ' ' ' * # 3 _ : c C E F { > ~ t A o o v # > = d F D d < / 2 % { ) = , > > > > > > > > > > > > > > > > > > > > > > > > > > > > > > > > > > > > > > > > > > > > > > > > > > > > , ~ - ! | _ 6 c b w G 6 > > w x o o B z ; , ! z w D d : _ | % { * - { % 3 1 * > > ~ % & &                                                                                                                   ",
"                                                                                                                & & ! = > > ! 1 3 # * ' ) ' * # 3 _ : c C E F { > ~ t A o o v # > = d F D d < / 2 % { ) = , > > > > > > > > > > > > > > > > > > > > > > > > > > > > > > > > > > > > > > > > > > > > > > > > > > > > , ~ - ! | _ 6 c b w G 6 > > w x o o B z ; , ! z w D d : _ | % { - - * # | 1 # > > ; ! & & *                                                                                                                 ",
"                                                                                                                & & ! ; > , & 1 | # - ' ) ' * # 3 _ : c C E F { > ~ t A o o v # > = d F D d < / 2 % { ) = , > > > > > > > > > > > > > > > > > > > > > > > > > > > > > > > > > > > > > > > > > > > > > > > > > > > > , ~ - ! | _ 6 c b w G 6 > > w x o o B z ; , ! z w D d : _ | % { - - * # & 2 | ; > ; { & & !                                                                                                                 ",
"                                                                                                        +     % & & * , > = | 2 & ! - ) ) ) * # 3 _ : c C E F { > ~ t A o o v # > = d F D d < / 2 % { ) = , > > > > > > > > > > > > > > > > > > > > > > > > > > > > > > > > > > > > > > > > > > > > > > > > > > > > , ~ - ! | _ 6 c b w G 6 > > w x o o B z ; , ! z w D d : _ | % { - ' - ! % 2 3 = > , * & & %                                                                                                                 ",
"                                                                                                              & & % - , > ' 2 2 & ! - ) ~ ) * # 3 _ : c C E F { > ~ t A o o v # > = d F D d < / 2 % { ) = , > > > > > > > > > > > > > > > > > > > > > > > > > > > > > > > > > > > > > > > > > > > > > > > > > > > > , ~ - ! | _ 6 c b w G 6 > > w x o o B z ; , ! z w D d : _ 3 # * ' ' - ! % 2 2 ' > > ' % & &                                                                                                                 ",
"                                                                                                              & & % ' > > - 2 2 % { ' ~ ~ ) * # 3 _ : c C E F { > ~ t A o o v # > = d F D d < / 2 % { ) = , > > > > > > > > > > > > > > > > > > > > > > > > > > > > > > > > > > > > > > > > > > > > > > > > > > > > , ~ - ! | _ 6 c b w G 6 > > w x o o B z ; , ! z w D d : _ 3 # * ' ' ' { % 3 1 { > > ) % & &                                                                                                                 ",
"                                                                                                              & & # ~ > , { 1 3 # { ' ~ ~ ) * # 3 _ : c C E F { > ~ t A o o v # > = d F D d < / 2 % { ) = , > > > > > > > > > > > > > > > > > > > > > > > > > > > > > > > > > > > > > > > > > > > > > > > > > > > > , ~ - ! | _ 6 c b w G 6 > > w x o o B z ; , ! z w D d : _ 3 # * ' ) ' { # 3 1 # , > = # & &                                                                                                                 ",
"                                                                                                      [       & & # = > ; % 1 | # * ) = = ) * # 3 _ : c C E F { > ~ t A o o v # > = d F D d < / 2 % { ) = , > > > > > > > > > > > > > > > > > > > > > > > > > > > > > > > > > > > > > > > > > > > > > > > > > > > > , ~ - ! | _ 6 c b w G 6 > > w x o o B z ; , ! z w D d : _ 3 # * ) ) ' * ! | 1 & ; > ; ! & &       [                                                                                                         ",
"                                                                                                      +       & & ! ; > ; & 1 | # * ) = = ~ * # 3 _ : c C E F { > ~ t A o o v # > = d F D d < / 2 % { ) = , > > > > > > > > > > > > > > > > > > > > > > > > > > > > > > > > > > > > > > > > > > > > > > > > > > > > , ~ - ! | _ 6 c b w z 6 > > w x o o B z ; , ! z w D d : _ | # * ) ~ ) - ! | 1 | = > ; { & & &     +                                                                                                         ",
"                                                                                                      +       & & { , > ~ | 1 & ! - ) = = ) * # 3 _ : c C E F { > ~ t A o o v # > = d F D d < / 2 % { ) = , > > > > > > > > > > > > > > > > > > > > > > > > > > > > > > > > > > > > > > > > > > > > > > > > > > > > , ~ - ! | _ 6 c b w z 6 > > w x o o B z ; , ! z w D d : _ | ! - ) ~ ) - ! & 2 3 ) > , * & & &     +                                                                                                         ",
"                                                                                                      +       & % - > > ) 3 2 & ! - ~ = = ) * # 3 _ : c C E F { > ~ t A o o v # > = d F D d < / 2 % { ) = , > > > > > > > > > > > > > > > > > > > > > > > > > > > > > > > > > > > > > > > > > > > > > > > > > > > > , ~ - ! | _ 6 c b w z 6 > > w x o o B z ; , ! z w D d : _ | ! - ~ ~ ) - { & 2 2 ' > > - % & &                                                                                                               ",
"                                                                                                    H       & & % ) > > - 1 2 % { ' ~ ; = ) * # 3 _ : c b E F { > ~ t A o o v # > = d F s ^ < / 2 % { ) = , > > > > > > > > > > > > > > > > > > > > > > > > > > > > > > > > > > > > > > > > > > > > > > > > > > > > , ~ - ! | _ 6 c C w z 6 > > w x o o B z ; , ! z w D d : _ | ! - ~ = ~ ' { % 3 1 * > > ) % & &       (                                                                                                       ",
"                                                                                                    $       & & % ~ > > { 1 3 % { ' = ; ; ~ * # 3 _ : c b E F { > ~ t A o o v # > = d G s ^ < / 2 % { ' = , > > > > > > > > > > > > > > > > > > > > > > > > > > > > > > > > > > > > > > > > > > > > > > > > > > > > , ~ - ! | _ 6 c C w z 6 > > w x o o B z ; , ! z w C c : _ | # - ~ = = ' * % 3 1 ! , > = % & &       $                                                                                                       ",
"                                                                                                    .       & & # ; > , ! 1 | # * ) = ; ; ~ * # | _ : c b E F { > ~ t A o o v # > = ^ G s ^ < / 2 % { ' = , > > > > > > > > > > > > > > > > > > > > > > > > > > > > > > > > > > > > > > > > > > > > > > > > > > > > , ~ - ! | _ : d C w G 6 > > w x o o B z ; , ! z w C c : _ | # - ~ = ~ ' * # | 1 # , > , ! & &       .                                                                                                       ",
"                                                                                                    @       & & ! , > = & _ | # * ) = , ; ~ * # | 1 6 c b E F { > ~ t A o o v # > = ^ G s ^ < / 2 & { ' = , > > > > > > > > > > > > > > > > > > > > > > > > > > > > > > > > > > > > > > > > > > > > > > > > > > > > , ~ - # | _ : d C w G 6 > > w x o o B z ; , ! z w C c : _ | # - ~ = = ) - # | 1 & = > , { & &       .                                                                                                       ",
"                                                                                                    }       & & { , > = | 1 & ! - ) = , ; ~ * # | 1 6 c b E w { > ~ t A o o v # > = ^ G s ^ 7 6 1 & { ' = , > > > > > > > > > > > > > > > > > > > > > > > > > > > > > > > > > > > > > > > > > > > > > > > > > > > > ; ~ - # | _ : d C w z 6 > > w x o o B z ; , ! z w C c : _ | ! - ~ = ; ) - ! & 1 3 ~ > > * & &       @                                                                                                       ",
"                                                                                                    5     % & % - > > ) 2 1 & ! - ~ ; , ; ~ - ! | 1 6 7 b E w { > ~ t A o o v # > = ^ G s ^ 7 6 1 & ! ' = , > > > > > > > > > > > > > > > > > > > > > > > > > > > > > > > > > > > > > > > > > > > > > > > > > > > > ; ~ - # 3 ] : d C F z : > > w x o o B z ; , ! G w C c : _ | ! - ~ ; = ~ ' ! & 2 2 ) > > ' % & %     5                                                                                                       ",
"                                                                                                    5     % & % ) > > ' 1 2 % { ' ~ ; , , ~ - ! | 1 6 7 b s w { > ~ t A o o I % > = ^ G s b 7 6 1 & ! ' = , > > > > > > > > > > > > > > > > > > > > > > > > > > > > > > > > > > > > > > > > > > > > > > > > > > > > ; ~ - # 3 ] < d D F J : > > F K o o B z ; , ! G w C c 6 _ | ! - = ; ; ~ ' { % 3 1 - > > ) % & %     }                                                                                                       ",
"                                                                                                    $     % & % ~ > > * 1 3 % { ' ~ ; , , = - ! | 1 6 7 b s w { > ~ L y o o M 1 > ; c G E b 7 : 1 & ! - ~ ; > > > > > > > > > > > > > > > > > > > > > > > > > > > > > > > > > > > > > > > > > > > > > > > > > > > > ; ) * % 3 ] < ^ D G J 6 > > N O o o B G ; , ! G E C c 6 1 | ! ' = ; ; ~ ) { % 3 1 { > > = # & &                                                                                                             ",
"                                                                                                  .       & & # = > , ! _ 3 % { ' = ; , , = - ! & 1 / 7 b s w ! , ~ m P o o Q / > ; c G E C c : _ | ! - ~ ; > > > > > > > > > > > > > > > > > > > > > > > > > > > > > > > > > > > > > > > > > > > > > > > > > > > , = ) * % 2 ] 7 ^ s G J / > > R S o o T s , , # G E b 7 6 1 & ! ' = ; ; = ) * % 3 1 # , > = # & &       +                                                                                                     ",
"                                                                                                  .       & & # ; > ; % _ | # * ) = ; > , = ' { & 2 / 7 ^ s F % , = a U o o V b > ; 7 z w C c : _ | # - ~ ; > > > > > > > > > > > > > > > > > > > > > > > > > > > > > > > > > > > > > > > > > > > > > > > > > > > , = ) { % 2 / 7 b s G z _ > > m W o o X ^ , , & G E b 7 / 1 & { ' ; , ; = ) * # | _ & ; > ; ! & &       .                                                                                                     ",
"                                                                                                  @       & & ! , > = & 1 | # * ) = , > , = ' { & 2 / 7 ^ s F | , = Y Z o o ` J > , : G w D d : _ 3 # * ) = , > > > > > > > > > > > > > > > > > > > > > > > > > > > > > > > > > > > > > > > > > > > > > > > > > > , = ' { & 1 6 7 b E z z 3 > , }  .o o ..7 , , 2 z s ^ 7 / 2 % { ' = , , = ~ * # | 1 | ~ > , { & &       @                                                                                                     ",
"                                                                                                  @     % & & { , > ~ 3 1 | # * ) = , > , = ' { % 2 ] < ^ D F 1 , ; J +.o o @.#.> , ] G F s ^ < ] 2 % * ' = , > > > > > > > > > > > > > > > > > > > > > > > > > > > > > > > > > > > > > > > > > > > > > > > > > > ; ~ ' ! & _ 6 c C w z G # > , 4 $.o o g : , ; / G s ^ < / 2 % { ' = , , = ~ * ! & 2 3 ) > , * & & &     @                                                                                                     ",
"                                                                                                  +     & & % - > > ) 3 2 & ! - ~ ; , > , = ' * # 3 ] : d D F / ; , ^ %.o o &.8 > , 2 F G s ^ 7 / 2 % { ' ~ ; , > > > > > > > > > > > > > > > > > > > > > > > > > > > > > > > > > > > > > > > > > > > > > > > > , ; ) - ! | _ : d D F J w ' > ) i o o o *._ > ; c G D ^ < ] 3 # * ) ; , , ; ~ - ! & 2 2 ' > > - % & &     +                                                                                                     ",
"                                                                                                  (     & & % ' > > ' 2 2 & { - ~ ; , > > ; ) - # | _ : c C w 7 = > 2 =.o o -.H = > # F G E b 7 / 1 & { ' ~ ; , > > > > > > > > > > > > > > > > > > > > > > > > > > > > > > > > > > > > > > > > > > > > > > > , , = ) * # 3 ] : d s F N D = > 1 ;.o o o >.% > = C F D d : _ | # * ) ; , , ; = ' { % 2 1 - > > ' % & &     ,.                                                                                                    ",
"                                                                                                4       & & & ) > , * 1 2 % { - ~ ; , > > ; ~ - # | _ 6 c b E b ) > # I '.o A ).| > * s z w C c 6 _ 3 # - ) = , > > > > > > > > > > > > > > > > > > > > > > > > > > > > > > > > > > > > > > > > > > > > > > > , ; ~ ' * % 2 / 7 b E G N c ; > w !.o o o H - > ' w w C d 6 _ | ! - ) ; , , , = ' { % 3 1 { , > ) % & &       H                                                                                                   ",
"                                                                                                ,.      & & % ~ > , * 1 3 % { ' = ; , > > ; ~ - ! & 1 / 7 b E s * > * i n o o =.c > ~ ^ z F D d : ] 2 % * ' ~ ; , > > > > > > > > > > > > > > > > > > > > > > > > > > > > > > > > > > > > > > > > > > > > > > , ; ) - { & 1 6 c C w J N 1 , > ~.{.o o ].^.) , % G E b c 6 1 & { - ~ ; > > ; = ' { % | 1 { , > = % & &       (                                                                                                   ",
"                                                                                                +       & & % = > , { 1 3 % * ' = , , > > , ~ - { % 2 / 7 ^ s E % , ~ 0 /.o o (.J > > / J G s b 7 / 2 & { ' ~ ; , , > > > > > > > > > > > > > > > > > > > > > > > > > > > > > > > > > > > > > > > > > > > > , ; = ) - # | _ : d D F N G ! > ' 4 X o o _.N = , _ G s ^ 7 / 2 % { ' = , > , , = ) * % | 1 ! ; > = # & &       +                                                                                                   ",
"                                                                                                @       & & # ; > ; # _ | # * ) = , , > > , = ' { % 3 ] : d D F _ ; > < +.o o j } ) > # z z w D c 6 _ | # - ) = ; , > > > > > > > > > > > > > > > > > > > > > > > > > > > > > > > > > > > > > > > > > > > , , ; ~ ' * % 2 / 7 b E G :.D ~ > ] <.[.o o }./ > ; 7 F D d < ] 3 # * ' = , > , , ; ) * # | 1 % ; > ; ! & &       @                                                                                                   ",
"                                                                                                @       & & ! , > ; % _ | # * ) ; , , > > ; = ) * # | _ : c C F c = > 3 |.o o o 1.# > = D N F s d : ] 3 % * ' ~ ; , , > > > > > > > > > > > > > > > > > > > > > > > > > > > > > > > > > > > > > > > > > > , ; = ) - { & 1 6 c C w J :./ > > E 2.o o 3.4.& > ' D w C d : _ | # - ) = , > , , ; ) * # | _ & = > , { & &       .                                                                                                   ",
"                                                                                                @       & & { > > ~ | 1 | # * ) ; , > > > , ; ) - ! & 1 6 7 b E D ) > ) } o o o 5.b > > _ N G E b 7 / 1 & ! - ) = ; , > > > > > > > > > > > > > > > > > > > > > > > > > > > > > > > > > > > > > > > > > , , = ~ ' * # 3 _ : d s F N z { > ) h 6.o o 7.^.) > ! w E b c 6 1 & ! - ) ; , > > , ; ) * # & 1 | ~ > > { & &       .                                                                                                   ",
"                                                                                                .       & & { > > ~ | 1 & # - ) ; , > > > > ; ~ - ! % 2 / < ^ s F & > , G W o o ].^.= > - w J F D d : ] 3 # * ' ~ = ; , > > > > > > > > > > > > > > > > > > > > > > > > > > > > > > > > > > > > > > > , , ; = ) - { & 2 6 7 C w J 8.d , > & 9.o o o S d > , 1 F s ^ 7 / 2 % { - ~ ; , > > , ; ~ - ! & 1 3 ) > > * & &       .                                                                                                   ",
"                                                                                              0.@       & & - > > ~ 2 1 & ! - ) ; , > > > > ; ~ ' { # 3 _ : c C F < , > ] <.o o o l 3 > ; : N z E b 7 / 2 & ! - ) ~ ; , , > > > > > > > > > > > > > > > > > > > > > > > > > > > > > > > > > > > > > , , , = ~ ' * # | _ : d D G :.N # > , w a.o o o b.% > = d F C d : ] 3 # { ' ~ ; > > > , ; ~ - { & 1 2 ) > > ' & &       @ c.                                                                                                ",
"                                                                                              d.@     # & & ' > > ) 1 1 & { - ) ; , > > > > , = ' * ! | 1 6 7 b E D ' > - ( e.o o f.9 ; > # G J F D d : _ 3 % { ' ) = ; , , > > > > > > > > > > > > > > > > > > > > > > > > > > > > > > > > > > > , , , ; ~ ' - ! & 2 / 7 C E J 9 ^ = > * c.o o o 6.~.; > * E w b c 6 1 | ! * ) = ; > > > , , ~ - { & 2 1 ' > > ) & & %     @ 4                                                                                                 ",
"                                                                                              $       # & & ) > > ' _ 2 & ! - ) ; , > > > , , = ) - ! & 2 ] < ^ s E | > , z (.o o g.h.% > = 7 :.z E C 7 6 1 & ! * ' ) = ; , , > > > > > > > > > > > > > > > > > > > > > > > > > > > > > > > > > > , , ; ~ ) - { % 3 ] < ^ s G :.N & , , C i.o o o Q < > > _ F s ^ < / 2 & ! - ~ ; , > > > , ; ~ - ! % 2 _ - > > ~ & & %       $                                                                                                 ",
"                                                                                              @       % & % ~ > > - ] 2 % ! - ~ ; , > > > > , ; ~ ' { # 3 _ : c C E 7 = > & j.k.o o l.w ; > { G :.F s ^ < ] 3 % ! - ' ~ = ; , , > > > > > > > > > > > > > > > > > > > > > > > > > > > > > > > , , , ; ~ ) - * # | 1 6 c C w J m.d ~ > - 4 -.o o  .,.- > ) b w C c : _ | # { ' ~ ; , > > > , , ~ - ! % 2 ] * > > = % & %       @                                                                                                 ",
"                                                                                              }       % & % = > , * ] 2 & ! - ~ , , > > > > , ; ~ ' * ! & 1 6 7 ^ s D { > , n.g o o g.i { > ; ] 9 J w C d : _ 3 % ! - ' ~ = ; , , > > > > > > > > > > > > > > > > > > > > > > > > > > > > > , , , ; = ) - * # & 2 / 7 b E z 9 J ! > , ^ 2.o.o o x F > > | w E b 7 / 1 & ! * ) = ; > > > > , , ~ - ! % 2 ] { , > ; % & %       @                                                                                                 ",
"                                                                                              }       % & % ; > , { ] 2 & ! - ~ , , > > > > > ; ~ ) - ! % 2 ] : d D E ] , > | 4.o o o p.N ; > ' D 9 z w C c 6 1 | % ! - ' ~ = ; ; , , > > > > > > > > > > > > > > > > > > > > > > > > > > , , ; ; = ) - * ! & 2 ] < ^ s G :.8.] ; > - q.r.o o s.t.* > ~ 7 w D d : ] 3 % { ' ) = , , > > > , , ~ - ! % 2 ] ! , > ; % & %       }                                                                                                 ",
"                                                                                              }       % & % ; > , { ] 2 & ! - ~ , , > > > > > , = ~ ' * # | 1 6 7 b E b - > , m.l.o o '.M & > , | N :.G s ^ < / 1 | % { - ' ) = ; ; , , > > > > > > > > > > > > > > > > > > > > > > > , , , ; = ~ ) - * ! % 2 _ : d C w N m.C ' > ; N u.o.o o 5.D > > # s E b 7 6 1 | # * ' ~ ; , > > > > , , ~ - ! % 2 ] ! , > ; % & %       }                                                                                                 ",
"                                                                                              }       % & % ; > , { ] 2 & ! - ~ , , > > > > > , ; ~ ) - ! % 2 ] : d D w / , > | v.U o o.6.$ ' > = 6 9 N F s ^ < / 1 | % ! - ' ) = ; ; , , , > > > > > > > > > > > > > > > > > > > > , , ; ; = ) ) - * ! & 2 _ 6 c C E J 8.G % , , 3 w.A o o x.4 ) > = < F D d : ] 2 & ! - ) ~ ; , > > > > , , ~ - ! % 2 ] ! , > ; % & %       }                                                                                                 ",
"                                                                                              }       % & % ; > , { ] 2 & ! - ~ ; , > > > > > , , = ) ' { % | 1 / 7 b E C { > > :.!.o o y.(.D , > ) c 8.N F D ^ < / 1 | % ! * ' ) ~ = = ; , , , > > > > > > > > > > > > > > > , , , ; ; = ~ ) ' * { # & 2 _ 6 c C E z 9 :.2 ; > - c.&.z.o A.|.7 > > & s E b 7 6 1 | # { ' ~ = , > > > > > , , ~ - ! % 2 ] ! , > ; % & %       }                                                                                                 ",
"                                                                                              }       % & % ; > , { / 2 & ! - ) ; , > > > > > > , ; ~ ' - ! & 2 ] : d D E 6 = > ~ B.C.o o.s.D.& , , { D 9 J w D ^ < / 1 3 & # { - ' ) ~ = ; ; , , , > > > > > > > > > > > , , , , ; ; ~ ) ' - * ! % | 2 _ 6 c b E z 9 9 / = > ; :.E.F.o G._.8 , > ) d F D d : ] 2 % ! - ) ~ ; , > > > > > , ; ~ - ! % 2 / ! , > ; % & %       }                                                                                                 ",
"                                                                                              }       % & % = > , * / 1 & ! - ) ; , > > > > > > , ; = ) - * # | 1 / 7 b E C # , > 1 H.I.o G./.J.! > , # E 9 J w D ^ 7 6 _ 3 & % ! { - ' ) ~ = ; ; , , , > > > > > > > , , , ; ; = = ~ ) - * { ! & 3 1 ] : c C E z 9 9 7 ) > ; d K K.o o L.b.{ > ; 1 E s ^ 7 / 1 | # * ' ~ = ; , > > > > > , ; ~ - { & 1 ] ! , > ; % & %       @                                                                                                 ",
"                                                                                              @       # & % = > > - / 1 | ! - ) ; , > > > > > > , , ; ~ ' - ! % 2 _ : c C F c ' > , 8.(.M.o '.W @ ' > , % w 9 N F s b c : ] 1 3 & % ! { * - ' ) ~ = = = ; ; ; ; ; ; ; ; = = ~ ~ ) ' - * { ! % | 2 _ / < d C w z 9 9 c ) > , : M -.o.o N.O.< > > { b w C c : _ 3 % ! - ' ~ ; , > > > > > > , ; ~ - ! & 1 ] * > > = % & %       @                                                                                                 ",
"                                                                                              [       # & & ) > > ' _ 1 | # * ) ; , , > > > > > > , ; = ) ' * # | 1 / < ^ s w _ ; > ~ ,.P.Q.o R.S.Y ~ > , & w 8.N F s C d < 6 _ 1 3 & # ! ! * * - ' ' ) ) ) ) ) ) ) ) ) ) ' ' - * { ! # % | 2 1 / : c ^ D w z 9 9 c ) > > 2 b.&.G.o T.l.R ; > ~ : F s ^ < / 2 & # * ' ) = ; , > > > > > , , ; ) - ! & 1 ] - > > ~ & & %       $                                                                                                 ",
"                                                                                              U.@     # & & ' > > ) 1 1 | # * ' = , , > > > > > > , ; ; ~ ) - { % 3 _ 6 c b E C % , > % v.V.o.o W.i.m.~ > , % D 9 :.G w D ^ c < / ] 1 3 | & % # ! { { * * * * - - * * * { { { # # % & 3 2 1 ] 6 7 d b s F J 9 N < ) > > 3 q.{.o o [.X.( ' > ; 2 w E b 7 6 _ 3 % { - ) ~ ; , , > > > > > , , = ) * ! | 1 1 ' > > ' & & %     } d.                                                                                                ",
"                                                                                                @       & & * > > ~ 2 _ | % * ' = ; , > > > > > > > , ; = ) ' * ! & 2 ] : d D F c - > > / Y.r.o.o Z.2.n.~ > > * ^ :.9 z w s C ^ c < 6 / _ 1 3 | & % % % # # ! ! ! ! # # % % & | 3 2 1 ] / 6 7 c b D E G N 9 z ] = > > 2 i {.o o o ..`.! > , # D w D d : _ 2 % ! * ' ~ = ; , > > > > > > , ; = ) * # | _ 2 ) > > - & &       @                                                                                                   ",
"                                                                                                @       & & ! , > = & ] 3 % { ' ~ ; , > > > > > > > > ; ; ~ ) ' { # | 1 / < ^ s F 6 ~ > , ^ =.T.o o  +.+a * > > ' : z 9 N G w D C ^ c < : 6 ] _ 1 2 2 3 3 3 3 3 3 3 3 3 2 2 1 _ _ / 6 : 7 c ^ C E F z 9 9 E 3 ; > , 6 h.++o o o @+).% > > - d F D ^ < / 2 & # * - ) = ; , , > > > > > > , ; = ' { % 3 _ | ~ > > { & &       @                                                                                                   ",
"                                                                                                @       & & # ; > , ! ] 2 & { - ~ = ; , > > > > > > , , ; = ~ ' - ! % 3 _ 6 7 b E w 1 = > , G #+o o o o $+$ | > > = | b 9 9 J F E D C ^ c 7 < : 6 / ] ] ] ] ] _ _ ] ] ] ] / 6 : : < c d b C s w G N 8.z < { > > ; D p 6.o o o P %+] > > ) : F s ^ 7 6 _ | # ! - ) ~ = ; , > > > > > > > , = ~ - { % 2 ] % ; > ; # & &       .                                                                                                   ",
"                                                                                                [       & & % ~ > , * _ 1 & ! - ) = ; , > > > > > > > , , = = ) ' { # & 2 _ : c b E s | ; > ; w O.M.o o o @.1./ > > , - ] F 9 :.J F w s C b ^ d c 7 < < : : : : : : : : < 7 7 c d b C D E w G N 9 :.b & ~ > > ) 9 #+&+o o o *+)./ , > ~ / F E b c 6 _ 3 % ! * ' ~ ~ ; , , > > > > > > , ; = ) - ! & 2 _ { , > ~ % & &       $                                                                                                   ",
"                                                                                                4       & & % ' > > ) 1 1 | # * ' ~ ; , , > > > > > > , , ; = ~ ) - { # & 2 ] : c C w D & , > = w Q F.o o o =+H.9 ) > > ; ! : F :.:.J F w E D D C b ^ d d d d d d d d d ^ ^ b C D s w F z N 9 :.D 1 ' > > , 2 [ %.-+o o o V.j.] , > = _ w w C c : ] 2 & # { ' ) ~ = ; , > > > > > > , , ; ~ ) * # | 1 1 ' > > ' % & &       H                                                                                                   ",
"                                                                                                  .       & & { , > = & ] 3 % { ' ~ = , , > > > > > > > , , ; = ~ ' - { # | 2 ] < d C w D & , > = b ;+r o o o n %.>+_ , > > = ! / s :.9 J G F w E E s D D C C C C C C D D s s E w G J N 9 N ^ 2 - ; > > = N l P.o o o o ,+0.1 , > = ] E w C d : ] 2 & # { - ) ~ = ; , , > > > > > > , , = ~ ' { % 3 _ 3 ~ > , * & & &     +                                                                                                     ",
"                                                                                                  .       & & ! ; > , { ] 2 & ! - ) = ; , , > > > > > > > , , ; = ) ' * ! # | 1 / < d C w D % , > , 6 '+)+G.o o F.!+=.Y ! , > > = - 3 ^ z :.N J z G F F w w E E E E w w F G G z N :.:.F < # ) ; > > = ] B.` ~+o o o y.{+. % , > = ] w w D d < / 2 | % ! * ' ~ = ; ; , > > > > > > , , ; = ) ' { & 2 _ ! , > ; ! & &       .                                                                                                     ",
"                                                                                                  +       % & % ) > > ) 2 1 & ! * ) ~ ; , , > > > > > > > , , ; ; ~ ) - * ! % 3 1 / < ^ D w D 3 ; > , 3 $ ]+y.o.o o g.^+/+N { , > > , ~ ! _ d E z N N :.N N J J J J N N N N J G D < 3 - = , > > ; / (+q Z F.o o z.X }.n.* > > ~ / w E C d < / 1 | % ! * ' ) = ; ; , , > > > > > > , , ; ~ ) - ! & 1 2 ' > > ) % & &       $                                                                                                     ",
"                                                                                                    }     % & & { , > , # _ 3 % { ' ) = ; , , > > > > > > > , , ; ; ~ ) - * ! % 3 1 / < ^ C E s _ = > , - 9 _+@+F.o.o  +U :+I #.{ = , > , ; ~ - ! & _ : d C s s s D b d 6 2 % { ) = , > > , ~ ] H <+[+T o.o G.u X.b.7 = > > ' 7 w E C d < / 1 | % ! * ' ) = = , , , > > > > > > , , ; = ) ' * % 3 _ & ; > , * & & %     @                                                                                                       ",
"                                                                                                    .       & & # = > > - 2 2 & ! - ' ~ ; , , > > > > > > > > , ; ; = ~ ) - { ! % 3 _ / < d C E E 6 ' , > ; _ i {+].W.o o.R.f }+}.(+: # ) ; > > > , , ; = = = = = = = = ; , , > > , = ' 3 E i l.|+T  +o o 1+2+3+(+* , > ; ! ^ F s C d < / 1 | % ! * ' ) ~ = ; , , > > > > > > > , , ; ~ ' - ! & 2 1 * > > = ! & &       .                                                                                                       ",
"                                                                                                    +       & & % - > > = & 1 | # * ' ~ = ; , , > > > > > > > , , ; ; = ~ ) - { ! % 3 1 / < d C E F d # ; > > ' N 4+^+n o.o o  +Z.U S.4.. z 2 ! ' ; > > > > > > > > > > > > = * % 6 Y 5+|.6+7+F.o.o o  +&+i.q.c ; > > ~ 3 D F s C c : ] 1 | % ! * ' ) ~ = ; , , > > > > > > > , , ; = ~ ' * # | 1 | = > > ' % & &       +                                                                                                       ",
"                                                                                                      +       & & ! ; > , { 1 3 % ! - ) ~ = ; , > > > > > > > > , , , ; = ) ' - { ! % | 1 / : c b s F s 1 ~ , > , % ~.D.8+*+G.o o o W.M.7.p.3+I ,.N 7 6 _ 3 & % % | 2 ] 6 d ~.t.|.O 6+s.-+z.o o o 1+@+9+4.b - > > , * : w w D b c : ] 2 | % ! * ' ) ~ = ; , , > > > > > > > > , ; ; ~ ) - { % 3 1 ! , > ; ! & & &     +                                                                                                         ",
"                                                                                                      +       & & % ' > > = | 1 | # * ' ~ = ; , , > > > > > > > > , , ; = = ) ' - { ! % 3 1 ] : 7 ^ D w F < ! = > > , # h <.]+2+o o o o o o z.R.B X 0+E.a+b+;+).%+4+=.%.W V.7+Z.c+o.o o o o o M.6+x b.:.' > > , ) | b G E C ^ 7 6 ] 2 & % ! * ' ) ~ = ; , , , > > > > > > > , , ; = ~ ' * ! | 2 3 ~ > > ) # & &       +                                                                                                         ",
"                                                                                                              & & & { ; > > { 1 2 % { - ) ~ = ; , , > > > > > > > > , , , ; ~ ) ' - * ! % | 2 _ 6 < d C E F C ] * ; > > > % 8.i O.g K.o o o o o o o o o o o o o o o o o o o o o o o o o o &+i.H.( E ) > > > = # < E F s b c < / _ 3 & # ! * ' ) ~ = ; , , > > > > > > > > , , ; = ~ ) - { % 3 1 ! > > , { & & &                                                                                                                 ",
"                                                                                                        +       & & % ) > > = & 1 | # * ' ) = ; , , > > > > > > > > > , , ; = = ~ ) - * ! # | 3 _ / : c b D E F b 2 - ; > > > ' / m 1.d+:+)+X o o o o o o o o o o o o o o o o o y.e.e+` Y.>+N & = > > > = ! 6 s F E C ^ c : ] 1 3 & # { * ' ) ~ = ; ; , > > > > > > > > > , , ; = ) ' * ! | 2 | = > > ~ # & & !                                                                                                                 ",
"                                                                                                                % & & { ; > > - 2 3 % ! - ' ~ = ; , , > > > > > > > > > , , ; ; = ~ ) ' * { # & 3 1 ] 6 7 d b D w F d 1 { = > > > > ~ 7 Y . '+Y.d+f+_.)+].$.o o o o A.@+[+S *.w.4+q.g+:.3 > > > > , ) % / D G w C b d < 6 ] 2 | % ! { - ' ) ~ = ; , , , > > > > > > > > , , ; = ~ ) - ! % 3 2 * > > ; * & & %                                                                                                                   ",
"                                                                                                          +       & & % ' > > , % 1 | % { - ) ~ = ; , , > > > > > > > > > , , , ; = ~ ) ' - { ! % | 2 _ / : c ^ b s w w b : | ' , > > > > ; % ] c z #.h [ 4 5+U.U.5+H + 8 n.E < _ * > > > > > ; { 1 c s F w D b d 7 : / _ 2 & # ! * - ' ) ~ = ; , , > > > > > > > > > , , ; = ~ ) ' { # | 1 & ; > > ' % & &                                                                                                                     ",
"                                                                                                                  & & & ! = > > ' 2 2 & ! * ' ) = ; ; , , > > > > > > > > > , , ; ; = ~ ) ' - * ! # & 3 1 ] 6 < c ^ C s w F E ^ / & - = , > > > > > ; = ~ ~ ~ ) ) ~ ~ = = , > > > > > ; ~ * 3 < C w F E D b d 7 : / _ 2 3 & # { * - ) ) ~ = ; , , > > > > > > > > > , , ; ; = ) ' * ! & 2 1 ' > > ; { & & &       +                                                                                                             ",
"                                                                                                            [       & & % - , > , ! 1 3 % { - ' ~ = ; , , > > > > > > > > > > , , , ; = = ~ ) ' * { # % | 3 1 ] 6 < c ^ b D E w w s b < _ & { ) ; > > > > > > > > > > > > > , = ' ! 3 6 c C E F w E D b d 7 : 6 ] 1 3 & % ! * - ' ) ~ = ; ; , , > > > > > > > > > > , , ; = ~ ) - { # | 1 ! , > , ' % & &                                                                                                                       ",
"                                                                                                                    % & & # ~ > > ; % 2 & # { - ) ~ = ; , , > > > > > > > > > > , , , ; ; = ~ ) ' - * ! # & | 2 1 ] 6 < 7 d ^ C D E w w E s D ^ c 6 1 | # { * * * { ! % 3 _ : d b D E w w w E D b ^ c 7 < / ] 1 3 | % # { * - ) ) ~ = ; , , , > > > > > > > > > > , , ; = ~ ) - { # & 2 & = > > = ! & & %                                                                                                                       ",
"                                                                                                              +       & & & { ; > > ) 3 3 & ! * ' ) ~ ; ; , , > > > > > > > > > > , , , ; ; = = ~ ) - * { ! % & | 2 1 ] 6 : 7 c ^ ^ C D D s E w w w w w E s s s s s E E w w w w w E s s D b ^ d c < : / ] 1 3 | % # { * - ' ) ~ = ; ; ; , , > > > > > > > > > > , , ; ; ~ ) ' * ! % 3 3 ) > > , * & & &       +                                                                                                                 ",
"                                                                                                                      # & & & ' , > , * 1 3 % ! * ' ~ = ; ; , , > > > > > > > > > > > > , , , ; = ~ ) ' - * { ! # & | 3 1 _ / : < 7 c d ^ b b C D D s E E E E E E E E E s s D C C b ^ ^ d c < : 6 ] _ 1 3 | % # ! * - ' ) ~ = = ; ; , , , > > > > > > > > > > , , ; ; = ~ ' * { % 3 1 { , > , ' & & & #       .                                                                                                                 ",
"                                                                                                                +       % & & # ~ > > , ! 1 | # { * ' ~ = ; ; , , > > > > > > > > > > > > , , , ; ; = ~ ) ' - * { ! # & | 3 1 1 ] / 6 : < 7 c c d ^ ^ b b b b b b b b b ^ ^ ^ d c c 7 < : 6 ] _ 1 2 | | % # ! * - - ) ) = = ; ; , , , > > > > > > > > > > > , , ; ; = ~ ' - { # | 1 ! ; > > ~ # & & %       $                                                                                                                   ",
"                                                                                                                  [       & & & { ; > > = & 2 | # { - ) ~ = ; ; , , > > > > > > > > > > > > , , , ; ; ; = ~ ) ' - * { ! # % & | 3 2 1 _ ] / 6 : : < < 7 7 7 7 7 7 7 7 7 7 < < : : 6 / ] _ 1 2 3 | & # ! ! * - ' ' ) ~ = ; ; , , , > > > > > > > > > > > > , , ; ; = ~ ) - { # & 2 & = > > , * & & &       [                                                                                                                     ",
"                                                                                                                  +         & & & * , > > ) 3 2 & # { - ) ~ = ; ; , , > > > > > > > > > > > > > > , , , ; ; = ~ ) ' ' - * { ! # % & | 3 2 2 1 _ ] ] ] / / / 6 6 6 6 / / / ] ] _ _ 1 2 3 3 | % % ! ! { * - ' ) ~ ~ = ; ; , , , > > > > > > > > > > > > > , , ; ; = ~ ) - { # & 2 3 ' , > , - & & &         .                                                                                                                     ",
"                                                                                                                    +       % & & % ' , > , - 2 3 & # * - ) ~ = ; , , , > > > > > > > > > > > > > > , , , , ; ; = ~ ) ) ' - * * { ! ! # % & | | 3 3 3 2 2 1 1 1 1 1 1 2 2 3 3 3 | & % % # ! ! { * - ' ' ) ~ = = ; ; , , , , > > > > > > > > > > > > > , , , ; = ~ ) - * # & 3 2 - , > , ) % & & %       +                                                                                                                       ",
"                                                                                                                      +       % & & # ~ > > , - 2 3 % ! * - ) ~ = ; ; , , > > > > > > > > > > > > > > > , , , , ; ; ; = ~ ) ) ' ' - * * { { ! ! # % % % & & & & & & & & % % % # ! ! { { * - - ' ) ) ~ = = ; ; ; , , , > > > > > > > > > > > > > > > , , ; ; = ~ ) ' * ! % 3 2 * , > > ~ ! & & %       .                                                                                                                         ",
"                                                                                                                      $         & & & ! = > > , { 2 3 % ! * - ) ~ = ; ; , , > > > > > > > > > > > > > > > > > > , , , ; ; ; = = ~ ) ) ' ' - - * * { { { ! ! ! ! ! ! ! ! { { { * - - - ' ) ) ) ~ = = ; ; ; , , , > > > > > > > > > > > > > > > > > , , ; ; = ~ ) ' * ! % 3 2 { ; > > = ! & & &         $                                                                                                                         ",
"                                                                                                                        +         & & & ! = > > ; ! 2 3 % ! * - ) ~ = ; ; , , > > > > > > > > > > > > > > > > > > > , , , , ; ; = = = = ~ ~ ) ) ) ' ' ' ' ' - - - ' ' ' ' ' ) ) ) ~ ~ ~ = = = ; ; ; , , , , > > > > > > > > > > > > > > > > > > , , ; ; = ~ ) ' * ! % | 2 ! ; > > = { & & &         .                                                                                                                           ",
"                                                                                                                          @         & & & { ; > > ; ! 2 3 % ! * - ) ~ = ; ; , , , > > > > > > > > > > > > > > > > > > > > > > , , , , ; ; ; ; ; = = = = = = ~ ~ ~ = = = = = = = ; ; ; ; , , , , , > > > > > > > > > > > > > > > > > > > > > > , , ; ; = ~ ) ' * ! # | 2 # = > > ; * & & & &       @                                                                                                                             ",
"                                                                                                                            .       % & & & * , > > = # 2 3 % ! * - ) ~ = ; ; , , , > > > > > > > > > > > > > > > > > > > > > > > > > > > > > > , , , , , , ; ; ; ; , , , , , , > > > > > > > > > > > > > > > > > > > > > > > > > > > > > , , , ; ; = ~ ) ' * ! % | 2 % = > > , * % & & %       +                                                                                                                               ",
"                                                                                                                              +       % & & % - , > > = # 2 | % ! * - ) ~ = ; ; ; , , > > > > > > > > > > > > > > > > > > > > > > > > > > > > > > > > > > > > > > > > > > > > > > > > > > > > > > > > > > > > > > > > > > > > > > > > > , , ; ; ; = ~ ) ' * ! % | 2 # = > > , - % & & %       +                                                                                                                                 ",
"                                                                                                                              $ $       & & & % - , > > ; { 3 3 & ! * - ' ~ ~ = ; ; , , , > > > > > > > > > > > > > > > > > > > > > > > > > > > > > > > > > > > > > > > > > > > > > > > > > > > > > > > > > > > > > > > > > > > > > , , , ; ; = ~ ~ ' - * ! % 3 2 ! = > > , - % & & &       $ $                                                                                                                                 ",
"                                                                                                                                $         & & & % - , > > , { 2 3 & # { - ' ) ~ = ; ; , , , > > > > > > > > > > > > > > > > > > > > > > > > > > > > > > > > > > > > > > > > > > > > > > > > > > > > > > > > > > > > > > > > > > > , , , ; ; = ~ ) ' - { ! % 3 2 { ; > > , - % & & &         $                                                                                                                                   ",
"                                                                                                                                            & & & % - ; > > , { 2 3 & # { * ' ) ~ = ; ; , , , > > > > > > > > > > > > > > > > > > > > > > > > > > > > > > > > > > > > > > > > > > > > > > > > > > > > > > > > > > > > > > > > > , , , ; ; = ~ ) ' - { # & 3 2 ! , > > , ' % & & &                                                                                                                                               ",
"                                                                                                                                              & & & & * ; > > , * 2 3 | # ! * - ) ~ = = ; , , , > > > > > > > > > > > > > > > > > > > > > > > > > > > > > > > > > > > > > > > > > > > > > > > > > > > > > > > > > > > > > > > , , , ; = = ~ ) ' * { # & 3 2 * , > > , - % & & &         +                                                                                                                                       ",
"                                                                                                                                                & & & & * ; > > , ' | 2 | # ! { - ' ) ~ = ; , , , > > > > > > > > > > > > > > > > > > > > > > > > > > > > > > > > > > > > > > > > > > > > > > > > > > > > > > > > > > > > > , , , ; = = ) ' - { ! # & 2 | ' , > > ; * & & & &         $                                                                                                                                         ",
"                                                                                                                                        +         & & & & * = > > > = % 2 3 % # { - ' ) ~ = ; ; , , , > > > > > > > > > > > > > > > > > > > > > > > > > > > > > > > > > > > > > > > > > > > > > > > > > > > > > > > > > , , , ; ; = ~ ) ' - { # % | 2 % ~ > > > = * & & & &         +                                                                                                                                           ",
"                                                                                                                                          +         % & & & ! ~ , > > ; ! 3 3 & # { * - ) ~ = = ; , , , > > > > > > > > > > > > > > > > > > > > > > > > > > > > > > > > > > > > > > > > > > > > > > > > > > > > > > > , , , ; = = ~ ) ' * { # & 3 3 # = > > > = { & & & &         +                                                                                                                                             ",
"                                                                                                                                            +           & & | # ) , > > ; * | 3 | # ! { - ' ) ~ = ; ; , , , > > > > > > > > > > > > > > > > > > > > > > > > > > > > > > > > > > > > > > > > > > > > > > > > > > > , , , ; ; = ~ ) ' - * ! # & 3 3 { ; > > , ~ # | & &           +                                                                                                                                               ",
"                                                                                                                                              @         % & & | % ' , > > , ' & 2 3 % # { * ' ) ~ = = ; , , , > > > > > > > > > > > > > > > > > > > > > > > > > > > > > > > > > > > > > > > > > > > > > > > > > , , , ; = = ~ ) ' * { ! % | 3 & - , > > , ' # | & & %         @                                                                                                                                                 ",
"                                                                                                                                                +           & & & % * ; > > > ~ # 2 3 & # ! * - ' ) ~ = ; ; , , , > > > > > > > > > > > > > > > > > > > > > > > > > > > > > > > > > > > > > > > > > > > > > , , , ; ; = ~ ) ' - * ! # & 3 2 # ~ > > > ; - % & & &           .                                                                                                                                                   ",
"                                                                                                                                                  + $         & & & & { ~ , > > = { | 3 | % ! { * ' ) ~ = = ; ; , , > > > > > > > > > > > > > > > > > > > > > > > > > > > > > > > > > > > > > > > > > > > , , ; ; = = ~ ) ' - { ! % | 2 3 { = > > > = * % & & &         $ .                                                                                                                                                     ",
"                                                                                                                                                    $ +         & & & & ! ) , > > , ) % 2 3 & # { * - ' ) ~ = = ; ; , , > > > > > > > > > > > > > > > > > > > > > > > > > > > > > > > > > > > > > > > , , ; ; = = ~ ) ' ' * { # & 3 2 & ' , > > , ) ! & & & &         + +                                                                                                                                                       ",
"                                                                                                                                                        +         % & & & # - ; > > > = ! 3 2 | % ! { - ' ) ) ~ = ; ; ; , , > > > > > > > > > > > > > > > > > > > > > > > > > > > > > > > > > > > , , ; ; ; = ~ ) ) ' - { ! # | 2 3 # ~ > > > ; ' # & & & %         +                                                                                                                                                           ",
"                                                                                                                                                          .         # & & & % { ~ , > > ; ' % 2 3 & # ! * - ' ) ~ ~ = ; ; , , > > > > > > > > > > > > > > > > > > > > > > > > > > > > > > > > > , , ; ; = = ~ ) ' - * { # & 3 2 & - ; > > > = * % & & & #         .                                                                                                                                                             ",
"                                                                                                                                                            +         # & & & & # ' , > > , = { 3 2 | % ! { * - ' ) ~ = = ; ; , , > > > > > > > > > > > > > > > > > > > > > > > > > > > > > , , ; ; = = ~ ) ' - * { ! % | 2 3 ! ~ , > > , ) # & & & & #         +                                                                                                                                                               ",
"                                                                                                                                                                +         % & & & % * = > > > , ' & 2 3 & # ! * - ' ' ) ~ = = ; ; , , > > > > > > > > > > > > > > > > > > > > > > > > > , , , ; = = ~ ) ' ' - * ! # & 3 2 & ' ; > > > ; - % & & & &                                                                                                                                                                             ",
"                                                                                                                                                                  +         % & & & & ! ) , > > > ; * 3 2 | & # ! * - ' ) ) ~ = ; ; , , , > > > > > > > > > > > > > > > > > > > > > , , , ; ; = ~ ~ ) ' - * ! # % | 2 3 { = > > > , ) ! % & & & %         $                                                                                                                                                                     ",
"                                                                                                                                                                                & & & & % * = > > > , ) & 2 2 | % ! ! * - ' ) ) ~ = ; , , , , > > > > > > > > > > > > > > > > > , , , , ; = ~ ) ) ' - * ! ! # | 3 2 & ' , > > > ; - % & & & &           $                                                                                                                                                                       ",
"                                                                                                                                                                        +           & & & & ! ) ; > > > ; * | 2 3 & % ! { * - ' ) ~ = = ; , , , , > > > > > > > > > > > > > , , , , ; = = ~ ) ' - * { ! # & 3 2 | * ; > > > , ) ! & & & & %         +                                                                                                                                                                           ",
"                                                                                                                                                                          +           & & & & % * = , > > , ~ ! 3 2 3 & # ! { - ' ' ) ~ = = ; ; , , , > > > > > > > > > , , , ; ; ; = ~ ) ' ' - { ! # % | 2 3 ! ~ , > > , = * % & & & &           +                                                                                                                                                                             ",
"                                                                                                                                                                            $ .           & & & & # ) ; > > > , ) % 3 3 3 & # ! { - ' ' ) ~ = ; ; , , , , , > > > , , , , , ; ; = ~ ~ ' ' - { ! # % | 3 3 % ) , > > > ; ) ! & & & & %         . $                                                                                                                                                                               ",
"                                                                                                                                                                                @           % & & & % { ) , > > > ; - & 2 2 | & # ! { - ' ' ) ~ = = ; ; , , , , , , , ; ; = = ~ ) ) ' - * ! # % | 2 2 % - ; > > > , ~ { % & & & %           @                                                                                                                                                                                   ",
"                                                                                                                                                                                  + $           & & & & % * = , > > > = * & 2 3 | % # ! { * - ) ) ~ = = ; ; ; ; ; ; = = = ~ ) ) ' - { ! # % | 3 2 | { = > > > , = * % & & & & %           +                                                                                                                                                                                     ",
"                                                                                                                                                                                      +           # & & & & # - = , > > , = * & 2 2 | % # ! { - - ' ) ) ~ ~ ~ = ~ ~ ~ ) ) ' - - { ! # % | 3 2 & { ~ , > > > = ' # & & & & #           +                                                                                                                                                                                         ",
"                                                                                                                                                                                        + +           & & & & & ! ' ; > > > > ~ { | 2 2 | % % ! { * - - ' ' ' ) ' ' ' - - * { ! % % | 2 2 & { ~ , > > > ; ' ! & & & & & {         + +                                                                                                                                                                                           ",
"                                                                                                                                                                                            .             & & & & % { ) ; > > > , ~ * & 1 2 3 & % # ! ! { * * * * * { { ! # % & | 2 1 | { ~ , > > > , ) { % & & & & %           .                                                                                                                                                                                               ",
"                                                                                                                                                                                              . +           # & & & & % { ) , > > > , ~ { & 1 1 3 | & & % # # # # # % & & | 3 1 2 | { ~ , > > > , ) * # & & & & #           $ .                                                                                                                                                                                                 ",
"                                                                                                                                                                                                  +             & & & & & # { ) , > > > , = * | 1 _ 2 2 3 3 | | | 3 3 2 2 _ 1 | * ~ , > > > , ~ { # & & & & &             + [                                                                                                                                                                                                   ",
"                                                                                                                                                                                                      $             & & & & & % { ) , > > > , ; - | _ ] ] _ 1 1 1 _ ] ] _ | - = , > > > , ~ * % & & & & &             $                                                                                                                                                                                                         ",
"                                                                                                                                                                                                          $             & & & & & % * ~ , > > > , ; - % ] 6 6 6 6 6 ] & - ; , > > > , ~ * % & & & & &             $                                                                                                                                                                                                             ",
"                                                                                                                                                                                                                            & & & & & % { ) , > > > > , ) % ] < / & ) ; , > > > , ~ { % & & & & &                                                                                                                                                                                                                               ",
"                                                                                                                                                                                                                  $             % & & & & % ! ) ; , > > > , ~ * ~ , > > > , ; ) ! % & & & & %             $                                                                                                                                                                                                                     ",
"                                                                                                                                                                                                                    + +             % & & & & & ! - = , > > > > > > > , = ' ! & & & & & &             + +                                                                                                                                                                                                                       ",
"                                                                                                                                                                                                                        $ +             % & & & & & % - = , > > > , = - # & & & & & %             $ $                                                                                                                                                                                                                           ",
"                                                                                                                                                                                                                            $ .             # & & & & & % * ~ = ~ * # & & & & & #             . $                                                                                                                                                                                                                               ",
"                                                                                                                                                                                                                                . .             # % & & & & % ! # & & & & & #             . @                                                                                                                                                                                                                                   ",
"                                                                                                                                                                                                                                    $ +               % & & & & & & & %               + +                                                                                                                                                                                                                                       ",
"                                                                                                                                                                                                                                        + @ (             % & & & %               @ +                                                                                                                                                                                                                                           ",
"                                                                                                                                                                                                                                            . .               %               . .                                                                                                                                                                                                                                               ",
"                                                                                                                                                                                                                                                [ .                       . $                                                                                                                                                                                                                                                   ",
"                                                                                                                                                                                                                                                    $ . +           $ @ +                                                                                                                                                                                                                                                       ",
"                                                                                                                                                                                                                                                          + $     $                                                                                                                                                                                                                                                             ",
"                                                                                                                                                                                                                                                                                                                                                                                                                                                                                                                                ",
"                                                                                                                                                                                                                                                                                                                                                                                                                                                                                                                                ",
"                                                                                                                                                                                                                                                                                                                                                                                                                                                                                                                                ",
"                                                                                                                                                                                                                                                                                                                                                                                                                                                                                                                                ",
"                                                                                                                                                                                                                                                                                                                                                                                                                                                                                                                                ",
"                                                                                                                                                                                                                                                                                                                                                                                                                                                                                                                                ",
"                                                                                                                                                                                                                                                                                                                                                                                                                                                                                                                                ",
"                                                                                                                                                                                                                                                                                                                                                                                                                                                                                                                                ",
"                                                                                                                                                                                                                                                                                                                                                                                                                                                                                                                                ",
"                                                                                                                                                                                                                                                                                                                                                                                                                                                                                                                                ",
"                                                                                                                                                                                                                                                                                                                                                                                                                                                                                                                                ",
"                                                                                                                                                                                                                                                                                                                                                                                                                                                                                                                                ",
"                                                                                                                                                                                                                                                                                                                                                                                                                                                                                                                                ",
"                                                                                                                                                                                                                                                                                                                                                                                                                                                                                                                                ",
"                                                                                                                                                                                                                                                                                                                                                                                                                                                                                                                                ",
"                                                                                                                                                                                                                                                                                                                                                                                                                                                                                                                                "};
